;START_OF_HEADER
;HEADER_VERSION:0.1
;FLAVOR:Griffin
;GENERATOR.NAME:Cura_SteamEngine
;GENERATOR.VERSION:main
;GENERATOR.BUILD_DATE:2022-07-19
;TARGET_MACHINE.NAME:Ultimaker S3
;EXTRUDER_TRAIN.0.INITIAL_TEMPERATURE:235
;EXTRUDER_TRAIN.0.MATERIAL.VOLUME_USED:23670
;EXTRUDER_TRAIN.0.MATERIAL.GUID:60636bb4-518f-42e7-8237-fe77b194ebe0
;EXTRUDER_TRAIN.0.NOZZLE.DIAMETER:0.4
;EXTRUDER_TRAIN.0.NOZZLE.NAME:AA 0.4
;BUILD_PLATE.TYPE:glass
;BUILD_PLATE.INITIAL_TEMPERATURE:110
;PRINT.TIME:8851
;PRINT.GROUPS:1
;PRINT.SIZE.MIN.X:22.615
;PRINT.SIZE.MIN.Y:79.774
;PRINT.SIZE.MIN.Z:0.2
;PRINT.SIZE.MAX.X:174.705
;PRINT.SIZE.MAX.Y:110.225
;PRINT.SIZE.MAX.Z:23.2
;END_OF_HEADER
;Generated with Cura_SteamEngine main
T0
M82 ;absolute extrusion mode

G92 E0
M109 S235
G280 S1
G0 Z20.001
G1 F2700 E-6.5
;LAYER_COUNT:93
;LAYER:0
M107
M204 S1000
M205 X20 Y20
G1 F600 Z2.2
G0 F1636.4 X167.553 Y110.116 Z2.2
G0 X166.676 Y110.225
;TYPE:SKIRT
G1 F600 Z0.2
G1 F900 E0
G1 F600 X30.991 Y110.225 E2.04185
G1 X30.246 Y110.185 E2.05308
G1 X29.51 Y110.066 E2.0643
G1 X28.791 Y109.868 E2.07552
G1 X28.097 Y109.595 E2.08674
G1 X27.436 Y109.248 E2.09797
G1 X26.816 Y108.834 E2.10919
G1 X26.244 Y108.355 E2.12042
G1 X25.726 Y107.818 E2.13165
G1 X25.269 Y107.228 E2.14288
G1 X24.878 Y106.593 E2.1541
G1 X24.557 Y105.92 E2.16532
G1 X24.31 Y105.216 E2.17655
G1 X24.14 Y104.49 E2.18777
G1 X24.031 Y103.612 E2.20108
G1 X24.032 Y86.734 E2.45507
G1 X24.072 Y85.989 E2.4663
G1 X24.192 Y85.252 E2.47754
G1 X24.389 Y84.533 E2.48875
G1 X24.663 Y83.839 E2.49998
G1 X25.009 Y83.178 E2.51121
G1 X25.424 Y82.559 E2.52242
G1 X25.902 Y81.987 E2.53364
G1 X26.44 Y81.469 E2.54488
G1 X27.029 Y81.012 E2.5561
G1 X27.664 Y80.621 E2.56732
G1 X28.338 Y80.3 E2.57856
G1 X29.042 Y80.053 E2.58978
G1 X29.768 Y79.883 E2.601
G1 X30.645 Y79.774 E2.6143
G1 X166.33 Y79.774 E4.65615
G1 X167.075 Y79.814 E4.66738
G1 X167.811 Y79.933 E4.6786
G1 X168.53 Y80.131 E4.68982
G1 X169.224 Y80.404 E4.70104
G1 X169.885 Y80.751 E4.71228
G1 X170.505 Y81.165 E4.7235
G1 X171.077 Y81.644 E4.73472
G1 X171.595 Y82.181 E4.74595
G1 X172.052 Y82.771 E4.75718
G1 X172.443 Y83.406 E4.7684
G1 X172.764 Y84.079 E4.77962
G1 X173.011 Y84.783 E4.79085
G1 X173.181 Y85.509 E4.80207
G1 X173.29 Y86.387 E4.81539
G1 X173.289 Y103.265 E5.06937
G1 X173.249 Y104.01 E5.0806
G1 X173.129 Y104.747 E5.09184
G1 X172.932 Y105.466 E5.10306
G1 X172.658 Y106.16 E5.11428
G1 X172.312 Y106.821 E5.12551
G1 X171.897 Y107.44 E5.13673
G1 X171.419 Y108.012 E5.14794
G1 X170.881 Y108.53 E5.15918
G1 X170.292 Y108.987 E5.1704
G1 X169.657 Y109.378 E5.18162
G1 X168.983 Y109.699 E5.19286
G1 X168.279 Y109.946 E5.20408
G1 X167.553 Y110.116 E5.21531
G1 X166.676 Y110.225 E5.2286
G0 F1636.4 X166.329 Y109.745
G1 F600 X30.991 Y109.745 E7.26523
G1 X30.272 Y109.705 E7.27607
G1 X29.563 Y109.586 E7.28689
G1 X28.871 Y109.388 E7.29772
G1 X28.205 Y109.115 E7.30855
G1 X27.573 Y108.77 E7.31938
G1 X26.984 Y108.357 E7.33021
G1 X26.444 Y107.881 E7.34104
G1 X25.96 Y107.349 E7.35187
G1 X25.538 Y106.765 E7.36271
G1 X25.183 Y106.139 E7.37354
G1 X24.9 Y105.477 E7.38437
G1 X24.693 Y104.788 E7.3952
G1 X24.563 Y104.08 E7.40603
G1 X24.511 Y103.265 E7.41832
G1 X24.512 Y86.734 E7.66709
G1 X24.552 Y86.015 E7.67792
G1 X24.671 Y85.305 E7.68876
G1 X24.869 Y84.613 E7.69959
G1 X25.142 Y83.947 E7.71042
G1 X25.487 Y83.316 E7.72124
G1 X25.9 Y82.726 E7.73208
G1 X26.376 Y82.186 E7.74291
G1 X26.909 Y81.702 E7.75375
G1 X27.492 Y81.281 E7.76457
G1 X28.118 Y80.926 E7.7754
G1 X28.78 Y80.643 E7.78623
G1 X29.469 Y80.435 E7.79706
G1 X30.177 Y80.305 E7.80789
G1 X30.992 Y80.254 E7.82018
G1 X166.33 Y80.254 E9.85681
G1 X167.049 Y80.294 E9.86765
G1 X167.758 Y80.413 E9.87846
G1 X168.45 Y80.611 E9.8893
G1 X169.116 Y80.884 E9.90013
G1 X169.748 Y81.229 E9.91096
G1 X170.337 Y81.642 E9.92179
G1 X170.877 Y82.118 E9.93262
G1 X171.361 Y82.65 E9.94344
G1 X171.783 Y83.234 E9.95429
G1 X172.138 Y83.86 E9.96512
G1 X172.421 Y84.522 E9.97595
G1 X172.628 Y85.211 E9.98678
G1 X172.758 Y85.919 E9.99761
G1 X172.81 Y86.734 E10.0099
G1 X172.809 Y103.265 E10.25866
G1 X172.769 Y103.984 E10.2695
G1 X172.65 Y104.694 E10.28033
G1 X172.452 Y105.386 E10.29117
G1 X172.179 Y106.052 E10.302
G1 X171.834 Y106.683 E10.31282
G1 X171.421 Y107.273 E10.32366
G1 X170.945 Y107.813 E10.33449
G1 X170.412 Y108.297 E10.34532
G1 X169.829 Y108.718 E10.35615
G1 X169.203 Y109.073 E10.36697
G1 X168.541 Y109.356 E10.37781
G1 X167.852 Y109.564 E10.38864
G1 X167.144 Y109.694 E10.39947
G1 X166.329 Y109.745 E10.41176
G0 F1636.4 X166.636 Y109.265
G1 F600 X30.991 Y109.265 E12.45301
G1 X30.3 Y109.225 E12.46342
G1 X29.617 Y109.106 E12.47386
G1 X28.954 Y108.908 E12.48427
G1 X28.317 Y108.636 E12.49469
G1 X27.716 Y108.292 E12.50511
G1 X27.158 Y107.881 E12.51554
G1 X26.652 Y107.409 E12.52595
G1 X26.203 Y106.881 E12.53638
G1 X25.818 Y106.306 E12.5468
G1 X25.503 Y105.689 E12.55722
G1 X25.26 Y105.041 E12.56764
G1 X25.093 Y104.368 E12.57807
G1 X24.991 Y103.573 E12.59013
G1 X24.992 Y86.734 E12.84353
G1 X25.032 Y86.042 E12.85397
G1 X25.151 Y85.36 E12.86438
G1 X25.349 Y84.696 E12.87481
G1 X25.621 Y84.06 E12.88522
G1 X25.965 Y83.458 E12.89565
G1 X26.376 Y82.901 E12.90607
G1 X26.848 Y82.395 E12.91648
G1 X27.376 Y81.946 E12.92691
G1 X27.952 Y81.561 E12.93734
G1 X28.568 Y81.245 E12.94776
G1 X29.217 Y81.003 E12.95818
G1 X29.889 Y80.836 E12.9686
G1 X30.685 Y80.734 E12.98068
G1 X166.33 Y80.734 E15.02192
G1 X167.021 Y80.774 E15.03234
G1 X167.704 Y80.893 E15.04277
G1 X168.367 Y81.091 E15.05319
G1 X169.004 Y81.363 E15.06361
G1 X169.605 Y81.707 E15.07403
G1 X170.163 Y82.118 E15.08446
G1 X170.669 Y82.59 E15.09487
G1 X171.118 Y83.118 E15.1053
G1 X171.503 Y83.693 E15.11571
G1 X171.818 Y84.31 E15.12614
G1 X172.061 Y84.958 E15.13655
G1 X172.228 Y85.631 E15.14699
G1 X172.33 Y86.426 E15.15905
G1 X172.329 Y103.265 E15.41245
G1 X172.289 Y103.957 E15.42288
G1 X172.17 Y104.639 E15.4333
G1 X171.972 Y105.303 E15.44373
G1 X171.7 Y105.939 E15.45414
G1 X171.356 Y106.541 E15.46457
G1 X170.945 Y107.098 E15.47499
G1 X170.473 Y107.604 E15.4854
G1 X169.945 Y108.053 E15.49583
G1 X169.369 Y108.438 E15.50626
G1 X168.753 Y108.754 E15.51667
G1 X168.104 Y108.996 E15.5271
G1 X167.432 Y109.163 E15.53752
G1 X166.636 Y109.265 E15.54959
G0 F1636.4 X166.329 Y108.785
G1 F600 X30.991 Y108.785 E17.58622
G1 X30.328 Y108.745 E17.59622
G1 X29.675 Y108.626 E17.6062
G1 X29.04 Y108.429 E17.61621
G1 X28.434 Y108.157 E17.62621
G1 X27.865 Y107.815 E17.6362
G1 X27.341 Y107.406 E17.6462
G1 X26.87 Y106.938 E17.65619
G1 X26.459 Y106.416 E17.66619
G1 X26.113 Y105.849 E17.67618
G1 X25.838 Y105.244 E17.68619
G1 X25.638 Y104.611 E17.69618
G1 X25.515 Y103.958 E17.70617
G1 X25.471 Y103.265 E17.71662
G1 X25.472 Y86.734 E17.96539
G1 X25.512 Y86.071 E17.97539
G1 X25.631 Y85.417 E17.98539
G1 X25.828 Y84.783 E17.99538
G1 X26.1 Y84.177 E18.00537
G1 X26.443 Y83.608 E18.01537
G1 X26.851 Y83.084 E18.02537
G1 X27.319 Y82.613 E18.03536
G1 X27.841 Y82.202 E18.04536
G1 X28.408 Y81.856 E18.05535
G1 X29.013 Y81.581 E18.06535
G1 X29.646 Y81.381 E18.07534
G1 X30.299 Y81.258 E18.08534
G1 X30.992 Y81.214 E18.09579
G1 X166.33 Y81.214 E20.13242
G1 X166.993 Y81.254 E20.14241
G1 X167.646 Y81.373 E20.1524
G1 X168.281 Y81.57 E20.16241
G1 X168.887 Y81.842 E20.1724
G1 X169.456 Y82.184 E20.18239
G1 X169.98 Y82.593 E20.1924
G1 X170.451 Y83.061 E20.20239
G1 X170.862 Y83.583 E20.21239
G1 X171.208 Y84.15 E20.22238
G1 X171.483 Y84.755 E20.23238
G1 X171.683 Y85.388 E20.24237
G1 X171.806 Y86.041 E20.25237
G1 X171.85 Y86.734 E20.26282
G1 X171.849 Y103.265 E20.51159
G1 X171.809 Y103.928 E20.52158
G1 X171.69 Y104.582 E20.53159
G1 X171.493 Y105.216 E20.54158
G1 X171.221 Y105.822 E20.55157
G1 X170.878 Y106.391 E20.56157
G1 X170.47 Y106.915 E20.57156
G1 X170.002 Y107.386 E20.58156
G1 X169.48 Y107.797 E20.59155
G1 X168.913 Y108.143 E20.60155
G1 X168.308 Y108.418 E20.61155
G1 X167.675 Y108.618 E20.62154
G1 X167.022 Y108.741 E20.63154
G1 X166.329 Y108.785 E20.64199
G0 F1636.4 X166.329 Y108.305
G1 F600 X30.991 Y108.305 E22.67862
G1 X30.358 Y108.265 E22.68816
G1 X29.734 Y108.146 E22.69772
G1 X29.131 Y107.949 E22.70727
G1 X28.557 Y107.678 E22.71682
G1 X28.022 Y107.337 E22.72636
G1 X27.533 Y106.932 E22.73592
G1 X27.1 Y106.468 E22.74547
G1 X26.728 Y105.954 E22.75502
G1 X26.424 Y105.397 E22.76457
G1 X26.192 Y104.806 E22.77412
G1 X26.037 Y104.191 E22.78367
G1 X25.951 Y103.265 E22.79766
G1 X25.952 Y86.734 E23.04643
G1 X25.992 Y86.1 E23.05599
G1 X26.111 Y85.477 E23.06553
G1 X26.308 Y84.874 E23.07508
G1 X26.579 Y84.3 E23.08463
G1 X26.92 Y83.764 E23.09419
G1 X27.325 Y83.276 E23.10373
G1 X27.789 Y82.843 E23.11328
G1 X28.303 Y82.471 E23.12283
G1 X28.861 Y82.167 E23.13239
G1 X29.451 Y81.935 E23.14193
G1 X30.067 Y81.78 E23.15149
G1 X30.992 Y81.694 E23.16547
G1 X166.33 Y81.694 E25.2021
G1 X166.963 Y81.734 E25.21164
G1 X167.587 Y81.853 E25.2212
G1 X168.19 Y82.05 E25.23075
G1 X168.764 Y82.321 E25.2403
G1 X169.299 Y82.662 E25.24985
G1 X169.788 Y83.067 E25.2594
G1 X170.221 Y83.531 E25.26895
G1 X170.593 Y84.045 E25.2785
G1 X170.897 Y84.602 E25.28805
G1 X171.129 Y85.193 E25.29761
G1 X171.284 Y85.808 E25.30715
G1 X171.37 Y86.734 E25.32114
G1 X171.369 Y103.265 E25.56991
G1 X171.329 Y103.899 E25.57947
G1 X171.21 Y104.522 E25.58901
G1 X171.013 Y105.125 E25.59856
G1 X170.742 Y105.699 E25.60811
G1 X170.401 Y106.235 E25.61767
G1 X169.996 Y106.723 E25.62722
G1 X169.532 Y107.156 E25.63677
G1 X169.018 Y107.528 E25.64632
G1 X168.46 Y107.832 E25.65588
G1 X167.87 Y108.064 E25.66542
G1 X167.254 Y108.219 E25.67498
G1 X166.329 Y108.305 E25.68896
G0 F1636.4 X166.329 Y107.825
G1 F600 X30.991 Y107.825 E27.72558
G1 X30.389 Y107.785 E27.73466
G1 X29.797 Y107.666 E27.74375
G1 X29.226 Y107.47 E27.75283
G1 X28.686 Y107.2 E27.76192
G1 X28.187 Y106.861 E27.771
G1 X27.736 Y106.459 E27.78009
G1 X27.343 Y106.001 E27.78917
G1 X27.013 Y105.495 E27.79826
G1 X26.754 Y104.95 E27.80734
G1 X26.568 Y104.376 E27.81642
G1 X26.46 Y103.782 E27.82551
G1 X26.431 Y103.265 E27.8333
G1 X26.432 Y86.734 E28.08207
G1 X26.472 Y86.131 E28.09116
G1 X26.591 Y85.54 E28.10023
G1 X26.788 Y84.969 E28.10932
G1 X27.058 Y84.429 E28.11841
G1 X27.396 Y83.929 E28.12749
G1 X27.798 Y83.479 E28.13657
G1 X28.256 Y83.086 E28.14565
G1 X28.762 Y82.756 E28.15474
G1 X29.307 Y82.497 E28.16382
G1 X29.882 Y82.311 E28.17292
G1 X30.476 Y82.203 E28.182
G1 X30.992 Y82.174 E28.18978
G1 X166.33 Y82.174 E30.22641
G1 X166.932 Y82.214 E30.23548
G1 X167.524 Y82.333 E30.24457
G1 X168.095 Y82.529 E30.25366
G1 X168.635 Y82.799 E30.26274
G1 X169.134 Y83.138 E30.27182
G1 X169.585 Y83.54 E30.28091
G1 X169.978 Y83.998 E30.28999
G1 X170.308 Y84.504 E30.29908
G1 X170.567 Y85.049 E30.30816
G1 X170.753 Y85.623 E30.31724
G1 X170.861 Y86.217 E30.32633
G1 X170.89 Y86.734 E30.33412
G1 X170.889 Y103.265 E30.58289
G1 X170.849 Y103.868 E30.59198
G1 X170.73 Y104.459 E30.60105
G1 X170.533 Y105.03 E30.61014
G1 X170.263 Y105.57 E30.61923
G1 X169.925 Y106.07 E30.62831
G1 X169.523 Y106.52 E30.63739
G1 X169.065 Y106.913 E30.64647
G1 X168.559 Y107.243 E30.65556
G1 X168.014 Y107.502 E30.66464
G1 X167.439 Y107.688 E30.67374
G1 X166.845 Y107.796 E30.68282
G1 X166.329 Y107.825 E30.6906
G0 F1636.4 X166.329 Y107.345
G1 F600 X30.991 Y107.345 E32.72723
G1 X30.421 Y107.305 E32.73583
G1 X29.863 Y107.186 E32.74441
G1 X29.327 Y106.99 E32.753
G1 X28.823 Y106.721 E32.7616
G1 X28.362 Y106.385 E32.77018
G1 X27.952 Y105.987 E32.77878
G1 X27.602 Y105.536 E32.78737
G1 X27.318 Y105.041 E32.79596
G1 X27.106 Y104.511 E32.80455
G1 X26.97 Y103.956 E32.81315
G1 X26.911 Y103.265 E32.82358
G1 X26.912 Y86.734 E33.07235
G1 X26.952 Y86.164 E33.08095
G1 X27.071 Y85.606 E33.08954
G1 X27.267 Y85.069 E33.09814
G1 X27.536 Y84.566 E33.10672
G1 X27.872 Y84.105 E33.11531
G1 X28.27 Y83.695 E33.1239
G1 X28.721 Y83.345 E33.1325
G1 X29.216 Y83.061 E33.14108
G1 X29.746 Y82.849 E33.14967
G1 X30.301 Y82.713 E33.15827
G1 X30.992 Y82.654 E33.16871
G1 X166.33 Y82.654 E35.20534
G1 X166.9 Y82.694 E35.21393
G1 X167.458 Y82.813 E35.22252
G1 X167.994 Y83.009 E35.23111
G1 X168.498 Y83.278 E35.23971
G1 X168.959 Y83.614 E35.24829
G1 X169.369 Y84.012 E35.25689
G1 X169.719 Y84.463 E35.26548
G1 X170.003 Y84.958 E35.27407
G1 X170.215 Y85.488 E35.28266
G1 X170.351 Y86.043 E35.29126
G1 X170.41 Y86.734 E35.30169
G1 X170.409 Y103.265 E35.55046
G1 X170.369 Y103.835 E35.55906
G1 X170.25 Y104.393 E35.56764
G1 X170.054 Y104.93 E35.57625
G1 X169.785 Y105.433 E35.58483
G1 X169.449 Y105.894 E35.59341
G1 X169.051 Y106.304 E35.60201
G1 X168.6 Y106.654 E35.6106
G1 X168.105 Y106.938 E35.61919
G1 X167.575 Y107.15 E35.62778
G1 X167.02 Y107.286 E35.63638
G1 X166.329 Y107.345 E35.64682
G0 F1636.4 X166.546 Y106.865
G1 F600 X30.991 Y106.865 E37.68671
G1 X30.456 Y106.825 E37.69478
G1 X29.933 Y106.706 E37.70285
G1 X29.434 Y106.511 E37.71092
G1 X28.969 Y106.243 E37.71899
G1 X28.549 Y105.91 E37.72706
G1 X28.183 Y105.518 E37.73513
G1 X27.88 Y105.076 E37.74319
G1 X27.645 Y104.593 E37.75128
G1 X27.485 Y104.082 E37.75933
G1 X27.391 Y103.482 E37.76847
G1 X27.392 Y86.734 E38.0205
G1 X27.432 Y86.199 E38.02858
G1 X27.551 Y85.676 E38.03665
G1 X27.746 Y85.177 E38.04471
G1 X28.014 Y84.712 E38.05279
G1 X28.347 Y84.292 E38.06085
G1 X28.739 Y83.926 E38.06892
G1 X29.181 Y83.622 E38.077
G1 X29.664 Y83.388 E38.08507
G1 X30.176 Y83.228 E38.09315
G1 X30.775 Y83.134 E38.10227
G1 X166.33 Y83.134 E40.14216
G1 X166.865 Y83.174 E40.15024
G1 X167.388 Y83.293 E40.15831
G1 X167.887 Y83.488 E40.16637
G1 X168.352 Y83.756 E40.17445
G1 X168.772 Y84.089 E40.18251
G1 X169.138 Y84.481 E40.19058
G1 X169.441 Y84.923 E40.19865
G1 X169.676 Y85.406 E40.20673
G1 X169.836 Y85.917 E40.21479
G1 X169.93 Y86.517 E40.22393
G1 X169.929 Y103.265 E40.47596
G1 X169.889 Y103.8 E40.48403
G1 X169.77 Y104.323 E40.4921
G1 X169.575 Y104.822 E40.50016
G1 X169.307 Y105.287 E40.50824
G1 X168.974 Y105.707 E40.51631
G1 X168.582 Y106.073 E40.52438
G1 X168.14 Y106.377 E40.53245
G1 X167.657 Y106.611 E40.54053
G1 X167.145 Y106.771 E40.5486
G1 X166.546 Y106.865 E40.55772
G0 F1636.4 X166.609 Y106.385
G1 F600 X30.656 Y106.385 E42.6036
G1 X30.009 Y106.226 E42.61363
G1 X29.549 Y106.032 E42.62114
G1 X28.751 Y105.437 E42.63612
G1 X28.433 Y105.052 E42.64364
G1 X28.181 Y104.621 E42.65115
G1 X28.001 Y104.155 E42.65867
G1 X27.871 Y103.545 E42.66805
G1 X27.872 Y86.399 E42.92607
G1 X28.031 Y85.751 E42.93611
G1 X28.225 Y85.292 E42.94361
G1 X28.82 Y84.494 E42.95859
G1 X29.205 Y84.176 E42.96611
G1 X29.636 Y83.924 E42.97362
G1 X30.102 Y83.744 E42.98114
G1 X30.712 Y83.614 E42.99052
G1 X166.665 Y83.614 E45.03641
G1 X167.312 Y83.773 E45.04643
G1 X167.772 Y83.967 E45.05394
G1 X168.57 Y84.562 E45.06892
G1 X168.888 Y84.947 E45.07644
G1 X169.14 Y85.378 E45.08395
G1 X169.32 Y85.844 E45.09147
G1 X169.45 Y86.454 E45.10085
G1 X169.449 Y103.6 E45.35887
G1 X169.29 Y104.248 E45.36892
G1 X169.096 Y104.707 E45.37641
G1 X168.501 Y105.505 E45.39139
G1 X168.116 Y105.823 E45.39891
G1 X167.685 Y106.075 E45.40642
G1 X167.219 Y106.255 E45.41394
G1 X166.609 Y106.385 E45.42332
G0 F1636.4 X166.329 Y105.905
G1 F600 X30.685 Y105.905 E47.46456
G1 X30.09 Y105.747 E47.47382
G1 X29.297 Y105.29 E47.48759
G1 X28.972 Y104.966 E47.4945
G1 X28.513 Y104.175 E47.50826
G1 X28.393 Y103.732 E47.51517
G1 X28.351 Y103.265 E47.52222
G1 X28.352 Y86.425 E47.77564
G1 X28.511 Y85.833 E47.78486
G1 X28.704 Y85.417 E47.79176
G1 X28.967 Y85.04 E47.79868
G1 X29.291 Y84.715 E47.80559
G1 X30.082 Y84.256 E47.81935
G1 X30.525 Y84.136 E47.82626
G1 X30.992 Y84.094 E47.83331
G1 X166.636 Y84.094 E49.87454
G1 X167.231 Y84.252 E49.88381
G1 X168.024 Y84.709 E49.89758
G1 X168.349 Y85.033 E49.90449
G1 X168.808 Y85.824 E49.91825
G1 X168.928 Y86.267 E49.92516
G1 X168.97 Y86.734 E49.93221
G1 X168.969 Y103.574 E50.18563
