;START_OF_HEADER
;HEADER_VERSION:0.1
;FLAVOR:Griffin
;GENERATOR.NAME:Cura_SteamEngine
;GENERATOR.VERSION:main
;GENERATOR.BUILD_DATE:2022-07-19
;TARGET_MACHINE.NAME:Ultimaker S3
;EXTRUDER_TRAIN.0.INITIAL_TEMPERATURE:235
;EXTRUDER_TRAIN.0.MATERIAL.VOLUME_USED:1097
;EXTRUDER_TRAIN.0.MATERIAL.GUID:60636bb4-518f-42e7-8237-fe77b194ebe0
;EXTRUDER_TRAIN.0.NOZZLE.DIAMETER:0.4
;EXTRUDER_TRAIN.0.NOZZLE.NAME:AA 0.4
;BUILD_PLATE.TYPE:glass
;BUILD_PLATE.INITIAL_TEMPERATURE:110
;PRINT.TIME:627
;PRINT.GROUPS:1
;PRINT.SIZE.MIN.X:97.054
;PRINT.SIZE.MIN.Y:86.063
;PRINT.SIZE.MIN.Z:0.2
;PRINT.SIZE.MAX.X:132.946
;PRINT.SIZE.MAX.Y:103.937
;PRINT.SIZE.MAX.Z:14.95
;END_OF_HEADER
;Generated with Cura_SteamEngine main
T0
M82 ;absolute extrusion mode

G92 E0
M109 S235
G280 S1
G0 Z20.001
G1 F2700 E-6.5
;LAYER_COUNT:60
;LAYER:0
M107
M204 S1000
M205 X20 Y20
G1 F600 Z2.2
G0 F1636.4 X129.949 Y102.699 Z2.2
G0 X126.333 Y103.937
;TYPE:SKIRT
G1 F600 Z0.2
G1 F900 E0
G1 F600 X104.014 Y103.937 E0.33587
G1 X103.269 Y103.897 E0.34709
G1 X102.533 Y103.778 E0.35831
G1 X101.814 Y103.58 E0.36954
G1 X101.12 Y103.307 E0.38076
G1 X100.459 Y102.96 E0.39199
G1 X99.839 Y102.546 E0.40321
G1 X99.267 Y102.067 E0.41444
G1 X98.749 Y101.53 E0.42567
G1 X98.292 Y100.94 E0.4369
G1 X97.901 Y100.305 E0.44812
G1 X97.58 Y99.632 E0.45934
G1 X97.333 Y98.928 E0.47057
G1 X97.163 Y98.202 E0.48179
G1 X97.054 Y97.324 E0.4951
G1 X97.054 Y93.023 E0.55982
G1 X97.094 Y92.278 E0.57105
G1 X97.213 Y91.542 E0.58227
G1 X97.411 Y90.823 E0.59349
G1 X97.684 Y90.129 E0.60472
G1 X98.031 Y89.468 E0.61595
G1 X98.445 Y88.848 E0.62717
G1 X98.924 Y88.276 E0.6384
G1 X99.461 Y87.758 E0.64963
G1 X100.051 Y87.301 E0.66086
G1 X100.686 Y86.91 E0.67208
G1 X101.359 Y86.589 E0.6833
G1 X102.063 Y86.342 E0.69453
G1 X102.789 Y86.172 E0.70575
G1 X103.667 Y86.063 E0.71906
G1 X125.986 Y86.063 E1.05493
G1 X126.731 Y86.103 E1.06615
G1 X127.467 Y86.222 E1.07737
G1 X128.186 Y86.42 E1.0886
G1 X128.88 Y86.693 E1.09982
G1 X129.541 Y87.04 E1.11105
G1 X130.161 Y87.454 E1.12227
G1 X130.733 Y87.933 E1.1335
G1 X131.251 Y88.47 E1.14473
G1 X131.708 Y89.06 E1.15596
G1 X132.099 Y89.695 E1.16718
G1 X132.42 Y90.368 E1.1784
G1 X132.667 Y91.072 E1.18963
G1 X132.837 Y91.798 E1.20085
G1 X132.946 Y92.676 E1.21416
G1 X132.946 Y96.977 E1.27889
G1 X132.906 Y97.722 E1.29011
G1 X132.787 Y98.458 E1.30133
G1 X132.589 Y99.177 E1.31255
G1 X132.316 Y99.871 E1.32378
G1 X131.969 Y100.532 E1.33501
G1 X131.555 Y101.152 E1.34623
G1 X131.076 Y101.724 E1.35746
G1 X130.539 Y102.242 E1.36869
G1 X129.949 Y102.699 E1.37992
G1 X129.314 Y103.09 E1.39114
G1 X128.641 Y103.411 E1.40236
G1 X127.937 Y103.658 E1.41359
G1 X127.211 Y103.828 E1.42481
G1 X126.333 Y103.937 E1.43812
G0 F1636.4 X125.986 Y103.457
G1 F600 X104.014 Y103.457 E1.76877
G1 X103.295 Y103.417 E1.7796
G1 X102.586 Y103.298 E1.79042
G1 X101.894 Y103.1 E1.80125
G1 X101.228 Y102.827 E1.81208
G1 X100.596 Y102.482 E1.82292
G1 X100.007 Y102.069 E1.83374
G1 X99.467 Y101.593 E1.84458
G1 X98.983 Y101.061 E1.8554
G1 X98.561 Y100.477 E1.86624
G1 X98.206 Y99.851 E1.87707
G1 X97.923 Y99.189 E1.88791
G1 X97.716 Y98.5 E1.89873
G1 X97.586 Y97.792 E1.90956
G1 X97.534 Y96.977 E1.92185
G1 X97.534 Y93.023 E1.98136
G1 X97.574 Y92.304 E1.99219
G1 X97.693 Y91.595 E2.00301
G1 X97.891 Y90.903 E2.01384
G1 X98.164 Y90.237 E2.02467
G1 X98.509 Y89.605 E2.03551
G1 X98.922 Y89.016 E2.04633
G1 X99.398 Y88.476 E2.05717
G1 X99.93 Y87.992 E2.06799
G1 X100.514 Y87.57 E2.07883
G1 X101.14 Y87.215 E2.08966
G1 X101.802 Y86.932 E2.1005
G1 X102.491 Y86.725 E2.11132
G1 X103.199 Y86.595 E2.12216
G1 X104.014 Y86.543 E2.13444
G1 X125.986 Y86.543 E2.46509
G1 X126.705 Y86.583 E2.47593
G1 X127.414 Y86.702 E2.48674
G1 X128.106 Y86.9 E2.49758
G1 X128.772 Y87.173 E2.50841
G1 X129.404 Y87.518 E2.51924
G1 X129.993 Y87.931 E2.53007
G1 X130.533 Y88.407 E2.5409
G1 X131.017 Y88.939 E2.55172
G1 X131.439 Y89.523 E2.56257
G1 X131.794 Y90.149 E2.5734
G1 X132.077 Y90.811 E2.58423
G1 X132.284 Y91.5 E2.59506
G1 X132.414 Y92.208 E2.60589
G1 X132.466 Y93.023 E2.61818
G1 X132.466 Y96.977 E2.67768
G1 X132.426 Y97.696 E2.68852
G1 X132.307 Y98.405 E2.69934
G1 X132.109 Y99.097 E2.71017
G1 X131.836 Y99.763 E2.721
G1 X131.491 Y100.395 E2.73183
G1 X131.078 Y100.984 E2.74266
G1 X130.602 Y101.524 E2.75349
G1 X130.07 Y102.008 E2.76431
G1 X129.486 Y102.43 E2.77516
G1 X128.86 Y102.785 E2.78599
G1 X128.198 Y103.068 E2.79682
G1 X127.509 Y103.275 E2.80765
G1 X126.801 Y103.405 E2.81848
G1 X125.986 Y103.457 E2.83077
G0 F1636.4 X126.294 Y102.977
G1 F600 X104.014 Y102.977 E3.16605
G1 X103.323 Y102.937 E3.17646
G1 X102.64 Y102.818 E3.1869
G1 X101.977 Y102.62 E3.19731
G1 X101.34 Y102.348 E3.20773
G1 X100.739 Y102.004 E3.21815
G1 X100.181 Y101.593 E3.22858
G1 X99.675 Y101.121 E3.239
G1 X99.226 Y100.593 E3.24943
G1 X98.841 Y100.018 E3.25984
G1 X98.526 Y99.401 E3.27026
G1 X98.283 Y98.753 E3.28068
G1 X98.116 Y98.08 E3.29111
G1 X98.014 Y97.285 E3.30317
G1 X98.014 Y93.023 E3.36731
G1 X98.054 Y92.332 E3.37773
G1 X98.173 Y91.649 E3.38816
G1 X98.371 Y90.986 E3.39857
G1 X98.643 Y90.349 E3.409
G1 X98.987 Y89.748 E3.41942
G1 X99.398 Y89.19 E3.42985
G1 X99.87 Y88.684 E3.44026
G1 X100.398 Y88.235 E3.45069
G1 X100.973 Y87.85 E3.4611
G1 X101.59 Y87.535 E3.47153
G1 X102.238 Y87.292 E3.48194
G1 X102.911 Y87.125 E3.49238
G1 X103.706 Y87.023 E3.50444
G1 X125.986 Y87.023 E3.83972
G1 X126.677 Y87.063 E3.85013
G1 X127.36 Y87.182 E3.86057
G1 X128.023 Y87.38 E3.87098
G1 X128.66 Y87.652 E3.8814
G1 X129.261 Y87.996 E3.89182
G1 X129.819 Y88.407 E3.90225
G1 X130.325 Y88.879 E3.91266
G1 X130.774 Y89.407 E3.92309
G1 X131.159 Y89.982 E3.93351
G1 X131.474 Y90.599 E3.94393
G1 X131.717 Y91.247 E3.95435
G1 X131.884 Y91.92 E3.96478
G1 X131.986 Y92.715 E3.97684
G1 X131.986 Y96.977 E4.04098
G1 X131.946 Y97.668 E4.0514
G1 X131.827 Y98.351 E4.06183
G1 X131.629 Y99.014 E4.07224
G1 X131.357 Y99.651 E4.08266
G1 X131.013 Y100.252 E4.09309
G1 X130.602 Y100.81 E4.10351
G1 X130.13 Y101.316 E4.11393
G1 X129.602 Y101.765 E4.12436
G1 X129.027 Y102.15 E4.13477
G1 X128.41 Y102.465 E4.1452
G1 X127.762 Y102.708 E4.15561
G1 X127.089 Y102.875 E4.16605
G1 X126.294 Y102.977 E4.17811
G0 F1636.4 X125.986 Y102.497
G1 F600 X104.014 Y102.497 E4.50875
G1 X103.351 Y102.457 E4.51875
G1 X102.698 Y102.338 E4.52874
G1 X102.063 Y102.141 E4.53874
G1 X101.457 Y101.869 E4.54874
G1 X100.888 Y101.527 E4.55873
G1 X100.364 Y101.118 E4.56873
G1 X99.893 Y100.65 E4.57872
G1 X99.482 Y100.128 E4.58872
G1 X99.136 Y99.561 E4.59871
G1 X98.861 Y98.956 E4.60872
G1 X98.661 Y98.323 E4.61871
G1 X98.538 Y97.67 E4.6287
G1 X98.494 Y96.977 E4.63915
G1 X98.494 Y93.023 E4.69866
G1 X98.534 Y92.36 E4.70865
G1 X98.653 Y91.707 E4.71864
G1 X98.85 Y91.072 E4.72864
G1 X99.122 Y90.466 E4.73864
G1 X99.464 Y89.897 E4.74863
G1 X99.873 Y89.373 E4.75863
G1 X100.341 Y88.902 E4.76863
G1 X100.863 Y88.491 E4.77862
G1 X101.43 Y88.145 E4.78862
G1 X102.035 Y87.87 E4.79862
G1 X102.668 Y87.67 E4.80861
G1 X103.321 Y87.547 E4.81861
G1 X104.014 Y87.503 E4.82906
G1 X125.986 Y87.503 E5.1597
G1 X126.649 Y87.543 E5.1697
G1 X127.302 Y87.662 E5.17969
G1 X127.937 Y87.859 E5.18969
G1 X128.543 Y88.131 E5.19969
G1 X129.112 Y88.473 E5.20968
G1 X129.636 Y88.882 E5.21968
G1 X130.107 Y89.35 E5.22967
G1 X130.518 Y89.872 E5.23967
G1 X130.864 Y90.439 E5.24967
G1 X131.139 Y91.044 E5.25967
G1 X131.339 Y91.677 E5.26966
G1 X131.462 Y92.33 E5.27966
G1 X131.506 Y93.023 E5.29011
G1 X131.506 Y96.977 E5.34961
G1 X131.466 Y97.64 E5.3596
G1 X131.347 Y98.293 E5.36959
G1 X131.15 Y98.928 E5.3796
G1 X130.878 Y99.534 E5.38959
G1 X130.536 Y100.103 E5.39958
G1 X130.127 Y100.627 E5.40959
G1 X129.659 Y101.098 E5.41958
G1 X129.137 Y101.509 E5.42958
G1 X128.57 Y101.855 E5.43957
G1 X127.965 Y102.13 E5.44957
G1 X127.332 Y102.33 E5.45956
G1 X126.679 Y102.453 E5.46956
G1 X125.986 Y102.497 E5.48001
G0 F1636.4 X125.986 Y102.017
G1 F600 X104.014 Y102.017 E5.81065
G1 X103.381 Y101.977 E5.8202
G1 X102.757 Y101.858 E5.82976
G1 X102.154 Y101.661 E5.83931
G1 X101.58 Y101.39 E5.84886
G1 X101.045 Y101.049 E5.8584
G1 X100.556 Y100.644 E5.86796
G1 X100.123 Y100.18 E5.87751
G1 X99.751 Y99.666 E5.88706
G1 X99.447 Y99.109 E5.89661
G1 X99.215 Y98.518 E5.90616
G1 X99.06 Y97.903 E5.91571
G1 X98.974 Y96.977 E5.9297
G1 X98.974 Y93.023 E5.9892
G1 X99.014 Y92.39 E5.99875
G1 X99.133 Y91.766 E6.00831
G1 X99.33 Y91.163 E6.01785
G1 X99.601 Y90.589 E6.0274
G1 X99.942 Y90.054 E6.03695
G1 X100.347 Y89.565 E6.04651
G1 X100.811 Y89.132 E6.05606
G1 X101.325 Y88.76 E6.06561
G1 X101.882 Y88.456 E6.07515
G1 X102.473 Y88.224 E6.08471
G1 X103.088 Y88.069 E6.09425
G1 X104.014 Y87.983 E6.10825
G1 X125.986 Y87.983 E6.43889
G1 X126.619 Y88.023 E6.44844
G1 X127.243 Y88.142 E6.458
G1 X127.846 Y88.339 E6.46754
G1 X128.42 Y88.61 E6.47709
G1 X128.955 Y88.951 E6.48664
G1 X129.444 Y89.356 E6.4962
G1 X129.877 Y89.82 E6.50575
G1 X130.249 Y90.334 E6.5153
G1 X130.553 Y90.891 E6.52484
G1 X130.785 Y91.482 E6.5344
G1 X130.94 Y92.097 E6.54394
G1 X131.026 Y93.023 E6.55794
G1 X131.026 Y96.977 E6.61744
G1 X130.986 Y97.61 E6.62698
G1 X130.867 Y98.234 E6.63654
G1 X130.67 Y98.837 E6.64609
G1 X130.399 Y99.411 E6.65564
G1 X130.058 Y99.946 E6.66519
G1 X129.653 Y100.435 E6.67474
G1 X129.189 Y100.868 E6.68429
G1 X128.675 Y101.24 E6.69384
G1 X128.118 Y101.544 E6.70339
G1 X127.527 Y101.776 E6.71295
G1 X126.912 Y101.931 E6.72249
G1 X125.986 Y102.017 E6.73649
G0 F1636.4 X125.986 Y101.537
G1 F600 X104.014 Y101.537 E7.06713
G1 X103.412 Y101.497 E7.07621
G1 X102.82 Y101.378 E7.0853
G1 X102.249 Y101.182 E7.09438
G1 X101.709 Y100.912 E7.10347
G1 X101.21 Y100.573 E7.11254
G1 X100.759 Y100.171 E7.12164
G1 X100.366 Y99.713 E7.13072
G1 X100.036 Y99.207 E7.13981
G1 X99.777 Y98.662 E7.14889
G1 X99.591 Y98.088 E7.15797
G1 X99.483 Y97.494 E7.16705
G1 X99.454 Y96.977 E7.17485
G1 X99.454 Y93.023 E7.23435
G1 X99.494 Y92.421 E7.24343
G1 X99.613 Y91.829 E7.25251
G1 X99.809 Y91.258 E7.2616
G1 X100.079 Y90.718 E7.27068
G1 X100.418 Y90.219 E7.27976
G1 X100.82 Y89.768 E7.28885
G1 X101.278 Y89.375 E7.29793
G1 X101.784 Y89.045 E7.30703
G1 X102.329 Y88.786 E7.31611
G1 X102.903 Y88.6 E7.32519
G1 X103.497 Y88.492 E7.33427
G1 X104.014 Y88.463 E7.34206
G1 X125.986 Y88.463 E7.67271
G1 X126.588 Y88.503 E7.68179
G1 X127.18 Y88.622 E7.69087
G1 X127.751 Y88.818 E7.69996
G1 X128.291 Y89.088 E7.70904
G1 X128.79 Y89.427 E7.71812
G1 X129.241 Y89.829 E7.72721
G1 X129.634 Y90.287 E7.7363
G1 X129.964 Y90.793 E7.74539
G1 X130.223 Y91.338 E7.75447
G1 X130.409 Y91.912 E7.76355
G1 X130.517 Y92.506 E7.77263
G1 X130.546 Y93.023 E7.78042
G1 X130.546 Y96.977 E7.83993
G1 X130.506 Y97.579 E7.84901
G1 X130.387 Y98.171 E7.85809
G1 X130.191 Y98.742 E7.86718
G1 X129.921 Y99.282 E7.87626
G1 X129.582 Y99.781 E7.88534
G1 X129.18 Y100.232 E7.89443
G1 X128.722 Y100.625 E7.90351
G1 X128.216 Y100.955 E7.9126
G1 X127.671 Y101.214 E7.92168
G1 X127.097 Y101.4 E7.93076
G1 X126.503 Y101.508 E7.93985
G1 X125.986 Y101.537 E7.94764
G0 F1636.4 X125.986 Y101.057
G1 F600 X104.014 Y101.057 E8.27829
G1 X103.444 Y101.017 E8.28689
G1 X102.886 Y100.898 E8.29547
G1 X102.35 Y100.702 E8.30406
G1 X101.846 Y100.433 E8.31266
G1 X101.385 Y100.097 E8.32124
G1 X100.975 Y99.699 E8.32984
G1 X100.625 Y99.248 E8.33843
G1 X100.341 Y98.753 E8.34702
G1 X100.129 Y98.223 E8.35561
G1 X99.993 Y97.668 E8.36421
G1 X99.934 Y96.977 E8.37464
G1 X99.934 Y93.023 E8.43415
G1 X99.974 Y92.453 E8.44274
G1 X100.093 Y91.895 E8.45133
G1 X100.289 Y91.359 E8.45992
G1 X100.558 Y90.855 E8.46852
G1 X100.894 Y90.394 E8.4771
G1 X101.292 Y89.984 E8.4857
G1 X101.743 Y89.634 E8.49429
G1 X102.238 Y89.35 E8.50288
G1 X102.768 Y89.138 E8.51147
G1 X103.323 Y89.002 E8.52007
G1 X104.014 Y88.943 E8.5305
G1 X125.986 Y88.943 E8.86115
G1 X126.556 Y88.983 E8.86975
G1 X127.114 Y89.102 E8.87833
G1 X127.65 Y89.298 E8.88692
G1 X128.154 Y89.567 E8.89552
G1 X128.615 Y89.903 E8.9041
G1 X129.025 Y90.301 E8.9127
G1 X129.375 Y90.752 E8.92129
G1 X129.659 Y91.247 E8.92988
G1 X129.871 Y91.777 E8.93847
G1 X130.007 Y92.332 E8.94707
G1 X130.066 Y93.023 E8.9575
G1 X130.066 Y96.977 E9.01701
G1 X130.026 Y97.547 E9.0256
G1 X129.907 Y98.105 E9.03419
G1 X129.711 Y98.641 E9.04278
G1 X129.442 Y99.145 E9.05138
G1 X129.106 Y99.606 E9.05996
G1 X128.708 Y100.016 E9.06856
G1 X128.257 Y100.366 E9.07715
G1 X127.762 Y100.65 E9.08574
G1 X127.232 Y100.862 E9.09433
G1 X126.677 Y100.998 E9.10293
G1 X125.986 Y101.057 E9.11336
G0 F1636.4 X126.203 Y100.577
G1 F600 X104.014 Y100.577 E9.44727
G1 X103.479 Y100.537 E9.45535
G1 X102.956 Y100.418 E9.46342
G1 X102.457 Y100.223 E9.47148
G1 X101.992 Y99.955 E9.47956
G1 X101.572 Y99.622 E9.48762
G1 X101.206 Y99.23 E9.49569
G1 X100.903 Y98.788 E9.50376
G1 X100.668 Y98.305 E9.51184
G1 X100.508 Y97.794 E9.5199
G1 X100.414 Y97.194 E9.52904
G1 X100.414 Y93.023 E9.5918
G1 X100.454 Y92.488 E9.59988
G1 X100.573 Y91.965 E9.60795
G1 X100.768 Y91.466 E9.61601
G1 X101.036 Y91.001 E9.62409
G1 X101.369 Y90.581 E9.63215
G1 X101.761 Y90.215 E9.64022
G1 X102.203 Y89.912 E9.64829
G1 X102.686 Y89.677 E9.65637
G1 X103.197 Y89.517 E9.66443
G1 X103.797 Y89.423 E9.67357
G1 X125.986 Y89.423 E10.00748
G1 X126.521 Y89.463 E10.01555
G1 X127.044 Y89.582 E10.02362
G1 X127.543 Y89.777 E10.03169
G1 X128.008 Y90.045 E10.03976
G1 X128.428 Y90.378 E10.04783
G1 X128.794 Y90.77 E10.0559
G1 X129.097 Y91.212 E10.06396
G1 X129.332 Y91.695 E10.07205
G1 X129.492 Y92.206 E10.0801
G1 X129.586 Y92.806 E10.08924
G1 X129.586 Y96.977 E10.15201
G1 X129.546 Y97.512 E10.16008
G1 X129.427 Y98.035 E10.16816
G1 X129.232 Y98.534 E10.17622
G1 X128.964 Y98.999 E10.18429
G1 X128.631 Y99.419 E10.19236
G1 X128.239 Y99.785 E10.20043
G1 X127.797 Y100.088 E10.20849
G1 X127.314 Y100.323 E10.21658
G1 X126.803 Y100.483 E10.22464
G1 X126.203 Y100.577 E10.23377
G0 F1636.4 X126.266 Y100.097
G1 F600 X103.679 Y100.097 E10.57367
G1 X103.032 Y99.938 E10.5837
G1 X102.572 Y99.744 E10.59121
G1 X101.774 Y99.149 E10.60619
G1 X101.456 Y98.764 E10.61371
G1 X101.204 Y98.333 E10.62122
G1 X101.024 Y97.867 E10.62874
G1 X100.894 Y97.257 E10.63812
G1 X100.894 Y92.688 E10.70688
G1 X101.053 Y92.041 E10.71691
G1 X101.247 Y91.581 E10.72442
G1 X101.842 Y90.783 E10.7394
G1 X102.227 Y90.465 E10.74691
G1 X102.658 Y90.213 E10.75443
G1 X103.124 Y90.033 E10.76194
G1 X103.734 Y89.903 E10.77133
G1 X126.321 Y89.903 E11.11123
G1 X126.968 Y90.062 E11.12125
G1 X127.428 Y90.256 E11.12877
G1 X128.226 Y90.851 E11.14375
G1 X128.544 Y91.236 E11.15126
G1 X128.796 Y91.667 E11.15877
G1 X128.976 Y92.133 E11.16629
G1 X129.106 Y92.743 E11.17568
G1 X129.106 Y97.312 E11.24443
G1 X128.947 Y97.959 E11.25446
G1 X128.753 Y98.419 E11.26197
G1 X128.158 Y99.217 E11.27695
G1 X127.773 Y99.535 E11.28447
G1 X127.342 Y99.787 E11.29198
G1 X126.876 Y99.967 E11.2995
G1 X126.266 Y100.097 E11.30888
G0 F1636.4 X125.986 Y99.617
G1 F600 X103.708 Y99.617 E11.64413
G1 X103.113 Y99.459 E11.65339
G1 X102.32 Y99.002 E11.66717
G1 X101.995 Y98.678 E11.67407
G1 X101.536 Y97.887 E11.68784
G1 X101.374 Y97.289 E11.69716
G1 X101.374 Y92.717 E11.76596
G1 X101.532 Y92.122 E11.77523
G1 X101.989 Y91.329 E11.789
G1 X102.313 Y91.004 E11.7959
G1 X103.104 Y90.545 E11.80967
G1 X103.547 Y90.425 E11.81657
G1 X104.014 Y90.383 E11.82363
G1 X126.292 Y90.383 E12.15888
G1 X126.887 Y90.541 E12.16814
G1 X127.68 Y90.998 E12.18192
G1 X128.005 Y91.322 E12.18882
G1 X128.464 Y92.113 E12.20258
G1 X128.626 Y92.711 E12.21191
G1 X128.626 Y97.283 E12.28071
G1 X128.468 Y97.878 E12.28997
G1 X128.011 Y98.671 E12.30375
G1 X127.687 Y98.996 E12.31065
G1 X126.896 Y99.455 E12.32441
G1 X126.453 Y99.575 E12.33132
G1 X125.986 Y99.617 E12.33838
G0 F1636.4 X125.986 Y99.137
G1 F600 X103.736 Y99.137 E12.67321
G1 X103.203 Y98.979 E12.68157
G1 X102.51 Y98.528 E12.69401
