;START_OF_HEADER
;HEADER_VERSION:0.1
;FLAVOR:Griffin
;GENERATOR.NAME:Cura_SteamEngine
;GENERATOR.VERSION:main
;GENERATOR.BUILD_DATE:2022-07-19
;TARGET_MACHINE.NAME:Ultimaker S3
;EXTRUDER_TRAIN.0.INITIAL_TEMPERATURE:235
;EXTRUDER_TRAIN.0.MATERIAL.VOLUME_USED:81571
;EXTRUDER_TRAIN.0.MATERIAL.GUID:60636bb4-518f-42e7-8237-fe77b194ebe0
;EXTRUDER_TRAIN.0.NOZZLE.DIAMETER:0.4
;EXTRUDER_TRAIN.0.NOZZLE.NAME:AA 0.4
;BUILD_PLATE.TYPE:glass
;BUILD_PLATE.INITIAL_TEMPERATURE:110
;PRINT.TIME:26012
;PRINT.GROUPS:1
;PRINT.SIZE.MIN.X:40.152
;PRINT.SIZE.MIN.Y:80.21
;PRINT.SIZE.MIN.Z:0.2
;PRINT.SIZE.MAX.X:189.848
;PRINT.SIZE.MAX.Y:116.95
;PRINT.SIZE.MAX.Z:69.95
;END_OF_HEADER
;Generated with Cura_SteamEngine main
T0
M82 ;absolute extrusion mode

G92 E0
M109 S235
G280 S1
G0 Z20.001
G1 F2700 E-6.5
;LAYER_COUNT:280
;LAYER:0
M107
M204 S1000
M205 X20 Y20
G1 F600 Z2.2
G0 F1636.4 X159.516 Y116.671 Z2.2
G0 X157.912 Y116.95
;TYPE:SKIRT
G1 F600 Z0.2
G1 F900 E0
G1 F600 X72.434 Y116.95 E1.28631
G1 X71.689 Y116.91 E1.29754
G1 X70.953 Y116.791 E1.30876
G1 X70.234 Y116.593 E1.31998
G1 X69.54 Y116.32 E1.3312
G1 X68.879 Y115.973 E1.34244
G1 X68.259 Y115.559 E1.35366
G1 X67.687 Y115.08 E1.36488
G1 X67.169 Y114.543 E1.37611
G1 X66.712 Y113.953 E1.38734
G1 X66.321 Y113.318 E1.39856
G1 X66 Y112.645 E1.40978
G1 X65.753 Y111.941 E1.42101
G1 X65.583 Y111.215 E1.43223
G1 X65.474 Y110.337 E1.44555
G1 X65.474 Y90.02 E1.75129
G1 X65.514 Y89.275 E1.76251
G1 X65.633 Y88.539 E1.77373
G1 X65.831 Y87.82 E1.78495
G1 X66.104 Y87.126 E1.79618
G1 X66.451 Y86.465 E1.80741
G1 X66.865 Y85.845 E1.81863
G1 X67.344 Y85.273 E1.82986
G1 X67.881 Y84.755 E1.84109
G1 X68.471 Y84.298 E1.85232
G1 X69.106 Y83.907 E1.86354
G1 X69.779 Y83.586 E1.87476
G1 X70.483 Y83.339 E1.88599
G1 X71.209 Y83.169 E1.89721
G1 X72.087 Y83.06 E1.91052
G1 X157.565 Y83.06 E3.19683
G1 X158.31 Y83.1 E3.20806
G1 X159.046 Y83.219 E3.21928
G1 X159.765 Y83.417 E3.2305
G1 X160.459 Y83.69 E3.24172
G1 X161.12 Y84.037 E3.25296
G1 X161.74 Y84.451 E3.26418
G1 X162.312 Y84.93 E3.2754
G1 X162.83 Y85.467 E3.28663
G1 X163.287 Y86.057 E3.29786
G1 X163.678 Y86.692 E3.30908
G1 X163.999 Y87.365 E3.32031
G1 X164.246 Y88.069 E3.33153
G1 X164.416 Y88.795 E3.34275
G1 X164.525 Y89.673 E3.35607
G1 X164.525 Y109.99 E3.66181
G1 X164.485 Y110.735 E3.67303
G1 X164.366 Y111.471 E3.68425
G1 X164.168 Y112.19 E3.69548
G1 X163.895 Y112.884 E3.7067
G1 X163.548 Y113.545 E3.71793
G1 X163.134 Y114.165 E3.72915
G1 X162.655 Y114.737 E3.74038
G1 X162.118 Y115.255 E3.75161
G1 X161.528 Y115.712 E3.76284
G1 X160.893 Y116.103 E3.77406
G1 X160.22 Y116.424 E3.78528
G1 X159.516 Y116.671 E3.79651
G1 X158.79 Y116.841 E3.80773
G1 X157.912 Y116.95 E3.82104
G0 F1636.4 X157.565 Y116.47
G1 F600 X72.434 Y116.47 E5.10213
G1 X71.715 Y116.43 E5.11297
G1 X71.006 Y116.311 E5.12379
G1 X70.314 Y116.113 E5.13462
G1 X69.648 Y115.84 E5.14545
G1 X69.016 Y115.495 E5.15628
G1 X68.427 Y115.082 E5.16711
G1 X67.887 Y114.606 E5.17794
G1 X67.403 Y114.074 E5.18877
G1 X66.981 Y113.49 E5.19961
G1 X66.626 Y112.864 E5.21044
G1 X66.343 Y112.202 E5.22127
G1 X66.136 Y111.513 E5.2321
G1 X66.006 Y110.805 E5.24293
G1 X65.954 Y109.99 E5.25522
G1 X65.954 Y90.02 E5.55574
G1 X65.994 Y89.301 E5.56657
G1 X66.113 Y88.592 E5.57739
G1 X66.311 Y87.9 E5.58822
G1 X66.584 Y87.234 E5.59906
G1 X66.929 Y86.602 E5.60989
G1 X67.342 Y86.013 E5.62072
G1 X67.818 Y85.473 E5.63155
G1 X68.35 Y84.989 E5.64237
G1 X68.934 Y84.567 E5.65321
G1 X69.56 Y84.212 E5.66404
G1 X70.222 Y83.929 E5.67488
G1 X70.911 Y83.722 E5.6857
G1 X71.619 Y83.592 E5.69654
G1 X72.434 Y83.54 E5.70883
G1 X157.565 Y83.54 E6.98992
G1 X158.284 Y83.58 E7.00075
G1 X158.993 Y83.699 E7.01157
G1 X159.685 Y83.897 E7.0224
G1 X160.351 Y84.17 E7.03323
G1 X160.983 Y84.515 E7.04407
G1 X161.572 Y84.928 E7.05489
G1 X162.112 Y85.404 E7.06573
G1 X162.596 Y85.936 E7.07655
G1 X163.018 Y86.52 E7.08739
G1 X163.373 Y87.146 E7.09822
G1 X163.656 Y87.808 E7.10906
G1 X163.863 Y88.497 E7.11988
G1 X163.993 Y89.205 E7.13072
G1 X164.045 Y90.02 E7.14301
G1 X164.045 Y109.99 E7.44352
G1 X164.005 Y110.709 E7.45436
G1 X163.886 Y111.418 E7.46518
G1 X163.688 Y112.11 E7.47601
G1 X163.415 Y112.776 E7.48684
G1 X163.07 Y113.408 E7.49768
G1 X162.657 Y113.997 E7.5085
G1 X162.181 Y114.537 E7.51933
G1 X161.649 Y115.021 E7.53016
G1 X161.065 Y115.443 E7.541
G1 X160.439 Y115.798 E7.55183
G1 X159.777 Y116.081 E7.56266
G1 X159.088 Y116.288 E7.57349
G1 X158.38 Y116.418 E7.58432
G1 X157.565 Y116.47 E7.59661
G0 F1636.4 X157.873 Y115.99
G1 F600 X72.434 Y115.99 E8.88234
G1 X71.743 Y115.95 E8.89275
G1 X71.06 Y115.831 E8.90318
G1 X70.397 Y115.633 E8.9136
G1 X69.76 Y115.361 E8.92402
G1 X69.159 Y115.017 E8.93444
G1 X68.601 Y114.606 E8.94487
G1 X68.095 Y114.134 E8.95528
G1 X67.646 Y113.606 E8.96571
G1 X67.261 Y113.031 E8.97613
G1 X66.946 Y112.414 E8.98655
G1 X66.703 Y111.766 E8.99697
G1 X66.536 Y111.093 E9.0074
G1 X66.434 Y110.298 E9.01946
G1 X66.434 Y90.02 E9.32461
G1 X66.474 Y89.329 E9.33503
G1 X66.593 Y88.646 E9.34546
G1 X66.791 Y87.983 E9.35588
G1 X67.063 Y87.346 E9.3663
G1 X67.407 Y86.745 E9.37672
G1 X67.818 Y86.187 E9.38715
G1 X68.29 Y85.681 E9.39756
G1 X68.818 Y85.232 E9.40799
G1 X69.393 Y84.847 E9.41841
G1 X70.01 Y84.532 E9.42883
G1 X70.658 Y84.289 E9.43924
G1 X71.331 Y84.122 E9.44968
G1 X72.126 Y84.02 E9.46174
G1 X157.565 Y84.02 E10.74747
G1 X158.256 Y84.06 E10.75788
G1 X158.939 Y84.179 E10.76831
G1 X159.602 Y84.377 E10.77873
G1 X160.239 Y84.649 E10.78915
G1 X160.84 Y84.993 E10.79957
G1 X161.398 Y85.404 E10.81
G1 X161.904 Y85.876 E10.82041
G1 X162.353 Y86.404 E10.83084
G1 X162.738 Y86.979 E10.84126
G1 X163.053 Y87.596 E10.85168
G1 X163.296 Y88.244 E10.8621
G1 X163.463 Y88.917 E10.87253
G1 X163.565 Y89.712 E10.88459
G1 X163.565 Y109.99 E11.18974
G1 X163.525 Y110.681 E11.20016
G1 X163.406 Y111.364 E11.21059
G1 X163.208 Y112.027 E11.22101
G1 X162.936 Y112.664 E11.23143
G1 X162.592 Y113.265 E11.24185
G1 X162.181 Y113.823 E11.25228
G1 X161.709 Y114.329 E11.26269
G1 X161.181 Y114.778 E11.27312
G1 X160.606 Y115.163 E11.28354
G1 X159.989 Y115.478 E11.29396
G1 X159.341 Y115.721 E11.30437
G1 X158.668 Y115.888 E11.31481
G1 X157.873 Y115.99 E11.32687
G0 F1636.4 X157.565 Y115.51
G1 F600 X72.434 Y115.51 E12.60796
G1 X71.771 Y115.47 E12.61796
G1 X71.118 Y115.351 E12.62794
G1 X70.483 Y115.154 E12.63795
G1 X69.877 Y114.882 E12.64794
G1 X69.308 Y114.54 E12.65793
G1 X68.784 Y114.131 E12.66794
G1 X68.313 Y113.663 E12.67793
G1 X67.902 Y113.141 E12.68793
G1 X67.556 Y112.574 E12.69792
G1 X67.281 Y111.969 E12.70792
G1 X67.081 Y111.336 E12.71791
G1 X66.958 Y110.683 E12.72791
G1 X66.914 Y109.99 E12.73836
G1 X66.914 Y90.02 E13.03888
G1 X66.954 Y89.357 E13.04888
G1 X67.073 Y88.704 E13.05886
G1 X67.27 Y88.069 E13.06887
G1 X67.542 Y87.463 E13.07886
G1 X67.884 Y86.894 E13.08886
G1 X68.293 Y86.37 E13.09886
G1 X68.761 Y85.899 E13.10885
G1 X69.283 Y85.488 E13.11885
G1 X69.85 Y85.142 E13.12884
G1 X70.455 Y84.867 E13.13884
G1 X71.088 Y84.667 E13.14883
G1 X71.741 Y84.544 E13.15883
G1 X72.434 Y84.5 E13.16928
G1 X157.565 Y84.5 E14.45037
G1 X158.228 Y84.54 E14.46037
G1 X158.881 Y84.659 E14.47036
G1 X159.516 Y84.856 E14.48036
G1 X160.122 Y85.128 E14.49036
G1 X160.691 Y85.47 E14.50035
G1 X161.215 Y85.879 E14.51035
G1 X161.686 Y86.347 E14.52034
G1 X162.097 Y86.869 E14.53034
G1 X162.443 Y87.436 E14.54034
G1 X162.718 Y88.041 E14.55034
G1 X162.918 Y88.674 E14.56033
G1 X163.041 Y89.327 E14.57033
G1 X163.085 Y90.02 E14.58078
G1 X163.085 Y109.99 E14.88129
G1 X163.045 Y110.653 E14.89129
G1 X162.926 Y111.306 E14.90128
G1 X162.729 Y111.941 E14.91128
G1 X162.457 Y112.547 E14.92128
G1 X162.115 Y113.116 E14.93127
G1 X161.706 Y113.64 E14.94127
G1 X161.238 Y114.111 E14.95126
G1 X160.716 Y114.522 E14.96126
G1 X160.149 Y114.868 E14.97126
G1 X159.544 Y115.143 E14.98126
G1 X158.911 Y115.343 E14.99125
G1 X158.258 Y115.466 E15.00125
G1 X157.565 Y115.51 E15.0117
G0 F1636.4 X157.565 Y115.03
G1 F600 X72.434 Y115.03 E16.29278
G1 X71.801 Y114.99 E16.30233
G1 X71.177 Y114.871 E16.31189
G1 X70.574 Y114.674 E16.32144
G1 X70 Y114.403 E16.33099
G1 X69.465 Y114.062 E16.34053
G1 X68.976 Y113.657 E16.35009
G1 X68.543 Y113.193 E16.35964
G1 X68.171 Y112.679 E16.36919
G1 X67.867 Y112.122 E16.37874
G1 X67.635 Y111.531 E16.38829
G1 X67.48 Y110.916 E16.39784
G1 X67.394 Y109.99 E16.41183
G1 X67.394 Y90.02 E16.71235
G1 X67.434 Y89.387 E16.72189
G1 X67.553 Y88.763 E16.73145
G1 X67.75 Y88.16 E16.741
G1 X68.021 Y87.586 E16.75055
G1 X68.362 Y87.051 E16.7601
G1 X68.767 Y86.562 E16.76965
G1 X69.231 Y86.129 E16.7792
G1 X69.745 Y85.757 E16.78875
G1 X70.302 Y85.453 E16.7983
G1 X70.893 Y85.221 E16.80785
G1 X71.508 Y85.066 E16.8174
G1 X72.434 Y84.98 E16.83139
G1 X157.565 Y84.98 E18.11248
G1 X158.198 Y85.02 E18.12203
G1 X158.822 Y85.139 E18.13159
G1 X159.425 Y85.336 E18.14113
G1 X159.999 Y85.607 E18.15069
G1 X160.534 Y85.948 E18.16023
G1 X161.023 Y86.353 E18.16979
G1 X161.456 Y86.817 E18.17934
G1 X161.828 Y87.331 E18.18889
G1 X162.132 Y87.888 E18.19844
G1 X162.364 Y88.479 E18.20799
G1 X162.519 Y89.094 E18.21753
G1 X162.605 Y90.02 E18.23153
G1 X162.605 Y109.99 E18.53205
G1 X162.565 Y110.623 E18.54159
G1 X162.446 Y111.247 E18.55115
G1 X162.249 Y111.85 E18.5607
G1 X161.978 Y112.424 E18.57025
G1 X161.637 Y112.959 E18.5798
G1 X161.232 Y113.448 E18.58935
G1 X160.768 Y113.881 E18.5989
G1 X160.254 Y114.253 E18.60845
G1 X159.697 Y114.557 E18.618
G1 X159.106 Y114.789 E18.62755
G1 X158.491 Y114.944 E18.6371
G1 X157.565 Y115.03 E18.65109
G0 F1636.4 X157.565 Y114.55
G1 F600 X72.434 Y114.55 E19.93218
G1 X71.832 Y114.51 E19.94126
G1 X71.24 Y114.391 E19.95035
G1 X70.669 Y114.195 E19.95943
G1 X70.129 Y113.925 E19.96852
G1 X69.63 Y113.586 E19.97759
G1 X69.179 Y113.184 E19.98669
G1 X68.786 Y112.726 E19.99577
G1 X68.456 Y112.22 E20.00486
G1 X68.197 Y111.675 E20.01394
G1 X68.011 Y111.101 E20.02302
G1 X67.903 Y110.507 E20.0321
G1 X67.874 Y109.99 E20.0399
G1 X67.874 Y90.02 E20.34041
G1 X67.914 Y89.418 E20.34949
G1 X68.033 Y88.826 E20.35858
G1 X68.229 Y88.255 E20.36767
G1 X68.499 Y87.715 E20.37675
G1 X68.838 Y87.216 E20.38583
G1 X69.24 Y86.765 E20.39492
G1 X69.698 Y86.372 E20.404
G1 X70.204 Y86.042 E20.41309
G1 X70.749 Y85.783 E20.42217
G1 X71.323 Y85.597 E20.43125
G1 X71.917 Y85.489 E20.44034
G1 X72.434 Y85.46 E20.44813
G1 X157.565 Y85.46 E21.72922
G1 X158.167 Y85.5 E21.7383
G1 X158.759 Y85.619 E21.74739
G1 X159.33 Y85.815 E21.75647
G1 X159.87 Y86.085 E21.76556
G1 X160.369 Y86.424 E21.77463
G1 X160.82 Y86.826 E21.78373
G1 X161.213 Y87.284 E21.79281
G1 X161.543 Y87.79 E21.8019
G1 X161.802 Y88.335 E21.81098
G1 X161.988 Y88.909 E21.82006
G1 X162.096 Y89.503 E21.82914
G1 X162.125 Y90.02 E21.83694
G1 X162.125 Y109.99 E22.13745
G1 X162.085 Y110.592 E22.14653
G1 X161.966 Y111.184 E22.15562
G1 X161.77 Y111.755 E22.1647
G1 X161.5 Y112.295 E22.17379
G1 X161.161 Y112.794 E22.18287
G1 X160.759 Y113.245 E22.19196
G1 X160.301 Y113.638 E22.20104
G1 X159.795 Y113.968 E22.21013
G1 X159.25 Y114.227 E22.21921
G1 X158.676 Y114.413 E22.22829
G1 X158.082 Y114.521 E22.23738
G1 X157.565 Y114.55 E22.24517
G0 F1636.4 X157.565 Y114.07
G1 F600 X72.434 Y114.07 E23.52626
G1 X71.864 Y114.03 E23.53486
G1 X71.306 Y113.911 E23.54344
G1 X70.77 Y113.715 E23.55203
G1 X70.266 Y113.446 E23.56063
G1 X69.805 Y113.11 E23.56921
G1 X69.395 Y112.712 E23.57781
G1 X69.045 Y112.261 E23.5864
G1 X68.761 Y111.766 E23.59499
G1 X68.549 Y111.236 E23.60358
G1 X68.413 Y110.681 E23.61218
G1 X68.354 Y109.99 E23.62262
G1 X68.354 Y90.02 E23.92313
G1 X68.394 Y89.45 E23.93173
G1 X68.513 Y88.892 E23.94032
G1 X68.709 Y88.356 E23.94891
G1 X68.978 Y87.852 E23.9575
G1 X69.314 Y87.391 E23.96609
G1 X69.712 Y86.981 E23.97469
G1 X70.163 Y86.631 E23.98328
G1 X70.658 Y86.347 E23.99187
G1 X71.188 Y86.135 E24.00046
G1 X71.743 Y85.999 E24.00906
G1 X72.434 Y85.94 E24.01949
G1 X157.565 Y85.94 E25.30058
G1 X158.135 Y85.98 E25.30918
G1 X158.693 Y86.099 E25.31777
G1 X159.229 Y86.295 E25.32635
G1 X159.733 Y86.564 E25.33495
G1 X160.194 Y86.9 E25.34354
G1 X160.604 Y87.298 E25.35213
G1 X160.954 Y87.749 E25.36072
G1 X161.238 Y88.244 E25.36931
G1 X161.45 Y88.774 E25.3779
G1 X161.586 Y89.329 E25.3865
G1 X161.645 Y90.02 E25.39694
G1 X161.645 Y109.99 E25.69746
G1 X161.605 Y110.56 E25.70605
G1 X161.486 Y111.118 E25.71464
G1 X161.29 Y111.654 E25.72323
G1 X161.021 Y112.158 E25.73183
G1 X160.685 Y112.619 E25.74041
G1 X160.287 Y113.029 E25.74901
G1 X159.836 Y113.379 E25.7576
G1 X159.341 Y113.663 E25.76619
G1 X158.811 Y113.875 E25.77478
G1 X158.256 Y114.011 E25.78338
G1 X157.565 Y114.07 E25.79381
G0 F1636.4 X157.782 Y113.59
G1 F600 X72.434 Y113.59 E27.07817
G1 X71.899 Y113.55 E27.08624
G1 X71.376 Y113.431 E27.09431
G1 X70.877 Y113.236 E27.10237
G1 X70.412 Y112.968 E27.11045
G1 X69.992 Y112.635 E27.11852
G1 X69.626 Y112.243 E27.12659
G1 X69.323 Y111.801 E27.13465
G1 X69.088 Y111.318 E27.14273
G1 X68.928 Y110.807 E27.15079
G1 X68.834 Y110.207 E27.15993
G1 X68.834 Y90.02 E27.46371
G1 X68.874 Y89.485 E27.47179
G1 X68.993 Y88.962 E27.47986
G1 X69.188 Y88.463 E27.48792
G1 X69.456 Y87.998 E27.496
G1 X69.789 Y87.578 E27.50406
G1 X70.181 Y87.212 E27.51213
G1 X70.623 Y86.909 E27.5202
G1 X71.106 Y86.674 E27.52828
G1 X71.617 Y86.514 E27.53634
G1 X72.217 Y86.42 E27.54548
G1 X157.565 Y86.42 E28.82983
G1 X158.1 Y86.46 E28.83791
G1 X158.623 Y86.579 E28.84598
G1 X159.122 Y86.774 E28.85404
G1 X159.587 Y87.042 E28.86212
G1 X160.007 Y87.375 E28.87018
G1 X160.373 Y87.767 E28.87825
G1 X160.676 Y88.209 E28.88632
G1 X160.911 Y88.692 E28.8944
G1 X161.071 Y89.203 E28.90246
G1 X161.165 Y89.803 E28.9116
G1 X161.165 Y109.99 E29.21538
G1 X161.125 Y110.525 E29.22345
G1 X161.006 Y111.048 E29.23153
G1 X160.811 Y111.547 E29.23959
G1 X160.543 Y112.012 E29.24766
G1 X160.21 Y112.432 E29.25573
G1 X159.818 Y112.798 E29.2638
G1 X159.376 Y113.101 E29.27187
G1 X158.893 Y113.336 E29.27995
G1 X158.382 Y113.496 E29.28801
G1 X157.782 Y113.59 E29.29715
G0 F1636.4 X157.845 Y113.11
G1 F600 X72.099 Y113.11 E30.58749
G1 X71.452 Y112.951 E30.59752
G1 X70.992 Y112.757 E30.60503
G1 X70.194 Y112.162 E30.62001
G1 X69.876 Y111.777 E30.62752
G1 X69.624 Y111.346 E30.63503
G1 X69.444 Y110.88 E30.64255
G1 X69.314 Y110.27 E30.65194
G1 X69.314 Y89.685 E30.96171
G1 X69.473 Y89.038 E30.97174
G1 X69.667 Y88.578 E30.97925
G1 X70.262 Y87.78 E30.99423
G1 X70.647 Y87.462 E31.00174
G1 X71.078 Y87.21 E31.00926
G1 X71.544 Y87.03 E31.01677
G1 X72.154 Y86.9 E31.02616
G1 X157.9 Y86.9 E32.3165
G1 X158.547 Y87.059 E32.32653
G1 X159.007 Y87.253 E32.33404
G1 X159.805 Y87.848 E32.34902
G1 X160.123 Y88.233 E32.35654
G1 X160.375 Y88.664 E32.36405
G1 X160.555 Y89.13 E32.37157
G1 X160.685 Y89.74 E32.38095
G1 X160.685 Y110.325 E32.69072
G1 X160.526 Y110.972 E32.70075
G1 X160.332 Y111.432 E32.70826
G1 X159.737 Y112.23 E32.72324
G1 X159.352 Y112.548 E32.73076
G1 X158.921 Y112.8 E32.73827
G1 X158.455 Y112.98 E32.74579
G1 X157.845 Y113.11 E32.75517
G0 F1636.4 X157.565 Y112.63
G1 F600 X72.128 Y112.63 E34.04087
G1 X71.533 Y112.472 E34.05013
G1 X70.74 Y112.015 E34.0639
G1 X70.415 Y111.691 E34.07081
G1 X69.956 Y110.9 E34.08457
G1 X69.836 Y110.457 E34.09148
G1 X69.794 Y109.99 E34.09854
G1 X69.794 Y89.714 E34.40366
G1 X69.952 Y89.119 E34.41292
G1 X70.409 Y88.326 E34.4267
G1 X70.733 Y88.001 E34.4336
G1 X71.524 Y87.542 E34.44736
G1 X71.967 Y87.422 E34.45427
G1 X72.434 Y87.38 E34.46133
G1 X157.871 Y87.38 E35.74702
G1 X158.466 Y87.538 E35.75628
G1 X159.259 Y87.995 E35.77006
G1 X159.584 Y88.319 E35.77696
G1 X160.043 Y89.11 E35.79073
G1 X160.163 Y89.553 E35.79763
G1 X160.205 Y90.02 E35.80469
G1 X160.205 Y110.296 E36.10981
G1 X160.047 Y110.891 E36.11907
G1 X159.59 Y111.684 E36.13285
G1 X159.266 Y112.009 E36.13975
G1 X158.475 Y112.468 E36.15352
