;START_OF_HEADER
;HEADER_VERSION:0.1
;FLAVOR:Griffin
;GENERATOR.NAME:Cura_SteamEngine
;GENERATOR.VERSION:main
;GENERATOR.BUILD_DATE:2022-07-19
;TARGET_MACHINE.NAME:Ultimaker S3
;EXTRUDER_TRAIN.0.INITIAL_TEMPERATURE:235
;EXTRUDER_TRAIN.0.MATERIAL.VOLUME_USED:21756
;EXTRUDER_TRAIN.0.MATERIAL.GUID:60636bb4-518f-42e7-8237-fe77b194ebe0
;EXTRUDER_TRAIN.0.NOZZLE.DIAMETER:0.4
;EXTRUDER_TRAIN.0.NOZZLE.NAME:AA 0.4
;BUILD_PLATE.TYPE:glass
;BUILD_PLATE.INITIAL_TEMPERATURE:110
;PRINT.TIME:7450
;PRINT.GROUPS:1
;PRINT.SIZE.MIN.X:83.04
;PRINT.SIZE.MIN.Y:62.692
;PRINT.SIZE.MIN.Z:0.2
;PRINT.SIZE.MAX.X:146.959
;PRINT.SIZE.MAX.Y:127.307
;PRINT.SIZE.MAX.Z:24.95
;END_OF_HEADER
;Generated with Cura_SteamEngine main
T0
M82 ;absolute extrusion mode

G92 E0
M109 S235
G280 S1
G0 Z20.001
G1 F2700 E-6.5
;LAYER_COUNT:100
;LAYER:0
M107
M204 S1000
M205 X20 Y20
G1 F600 Z2.2
G0 F1636.4 X143.327 Y108.595 Z2.2
G0 X140.346 Y109.442
;TYPE:SKIRT
G1 F600 Z0.2
G1 F900 E0
G1 F600 X90 Y109.442 E0.75763
G1 X89.255 Y109.402 E0.76886
G1 X88.519 Y109.283 E0.78008
G1 X87.8 Y109.085 E0.7913
G1 X87.106 Y108.812 E0.80252
G1 X86.445 Y108.465 E0.81376
G1 X85.825 Y108.051 E0.82497
G1 X85.253 Y107.572 E0.8362
G1 X84.735 Y107.035 E0.84743
G1 X84.278 Y106.445 E0.85866
G1 X83.887 Y105.81 E0.86988
G1 X83.566 Y105.137 E0.8811
G1 X83.319 Y104.433 E0.89233
G1 X83.149 Y103.707 E0.90355
G1 X83.04 Y102.829 E0.91686
G1 X83.04 Y72.502 E1.37324
G1 X83.08 Y71.757 E1.38447
G1 X83.199 Y71.021 E1.39569
G1 X83.397 Y70.302 E1.40691
G1 X83.67 Y69.608 E1.41813
G1 X84.017 Y68.947 E1.42936
G1 X84.431 Y68.327 E1.44058
G1 X84.91 Y67.755 E1.45181
G1 X85.447 Y67.237 E1.46304
G1 X86.037 Y66.78 E1.47427
G1 X86.672 Y66.389 E1.48549
G1 X87.345 Y66.068 E1.49671
G1 X88.049 Y65.821 E1.50794
G1 X88.775 Y65.651 E1.51916
G1 X89.653 Y65.542 E1.53247
G1 X139.999 Y65.542 E2.2901
G1 X140.744 Y65.582 E2.30133
G1 X141.48 Y65.701 E2.31255
G1 X142.199 Y65.899 E2.32377
G1 X142.893 Y66.172 E2.33499
G1 X143.554 Y66.519 E2.34623
G1 X144.174 Y66.933 E2.35745
G1 X144.746 Y67.412 E2.36868
G1 X145.264 Y67.949 E2.3799
G1 X145.721 Y68.539 E2.39113
G1 X146.112 Y69.174 E2.40236
G1 X146.433 Y69.847 E2.41358
G1 X146.68 Y70.551 E2.4248
G1 X146.85 Y71.277 E2.43602
G1 X146.959 Y72.155 E2.44934
G1 X146.959 Y102.482 E2.90571
G1 X146.919 Y103.227 E2.91694
G1 X146.8 Y103.963 E2.92816
G1 X146.602 Y104.682 E2.93938
G1 X146.329 Y105.376 E2.9506
G1 X145.982 Y106.037 E2.96184
G1 X145.568 Y106.657 E2.97306
G1 X145.089 Y107.229 E2.98428
G1 X144.552 Y107.747 E2.99551
G1 X143.962 Y108.204 E3.00674
G1 X143.327 Y108.595 E3.01797
G1 X142.654 Y108.916 E3.02919
G1 X141.95 Y109.163 E3.04041
G1 X141.224 Y109.333 E3.05163
G1 X140.346 Y109.442 E3.06495
G0 F1636.4 X139.999 Y108.962
G1 F600 X90 Y108.962 E3.81736
G1 X89.281 Y108.922 E3.82819
G1 X88.572 Y108.803 E3.83901
G1 X87.88 Y108.605 E3.84984
G1 X87.214 Y108.332 E3.86067
G1 X86.582 Y107.987 E3.87151
G1 X85.993 Y107.574 E3.88233
G1 X85.453 Y107.098 E3.89317
G1 X84.969 Y106.566 E3.90399
G1 X84.547 Y105.982 E3.91483
G1 X84.192 Y105.356 E3.92566
G1 X83.909 Y104.694 E3.9365
G1 X83.702 Y104.005 E3.94732
G1 X83.572 Y103.297 E3.95815
G1 X83.52 Y102.482 E3.97044
G1 X83.52 Y72.502 E4.4216
G1 X83.56 Y71.783 E4.43243
G1 X83.679 Y71.074 E4.44325
G1 X83.877 Y70.382 E4.45408
G1 X84.15 Y69.716 E4.46491
G1 X84.495 Y69.084 E4.47575
G1 X84.908 Y68.495 E4.48658
G1 X85.384 Y67.955 E4.49741
G1 X85.916 Y67.471 E4.50823
G1 X86.5 Y67.049 E4.51907
G1 X87.126 Y66.694 E4.5299
G1 X87.788 Y66.411 E4.54074
G1 X88.477 Y66.204 E4.55156
G1 X89.185 Y66.074 E4.5624
G1 X90 Y66.022 E4.57469
G1 X139.999 Y66.022 E5.32709
G1 X140.718 Y66.062 E5.33793
G1 X141.427 Y66.181 E5.34875
G1 X142.119 Y66.379 E5.35958
G1 X142.785 Y66.652 E5.37041
G1 X143.417 Y66.997 E5.38125
G1 X144.006 Y67.41 E5.39207
G1 X144.546 Y67.886 E5.4029
G1 X145.03 Y68.418 E5.41373
G1 X145.452 Y69.002 E5.42457
G1 X145.807 Y69.628 E5.4354
G1 X146.09 Y70.29 E5.44623
G1 X146.297 Y70.979 E5.45706
G1 X146.427 Y71.687 E5.46789
G1 X146.479 Y72.502 E5.48018
G1 X146.479 Y102.482 E5.93133
G1 X146.439 Y103.201 E5.94217
G1 X146.32 Y103.91 E5.95299
G1 X146.122 Y104.602 E5.96382
G1 X145.849 Y105.268 E5.97465
G1 X145.504 Y105.9 E5.98549
G1 X145.091 Y106.489 E5.99631
G1 X144.615 Y107.029 E6.00715
G1 X144.083 Y107.513 E6.01797
G1 X143.499 Y107.935 E6.02881
G1 X142.873 Y108.29 E6.03964
G1 X142.211 Y108.573 E6.05048
G1 X141.522 Y108.78 E6.0613
G1 X140.814 Y108.91 E6.07213
G1 X139.999 Y108.962 E6.08442
G0 F1636.4 X140.307 Y108.482
G1 F600 X90 Y108.482 E6.84147
G1 X89.309 Y108.442 E6.85188
G1 X88.626 Y108.323 E6.86231
G1 X87.963 Y108.125 E6.87273
G1 X87.326 Y107.853 E6.88315
G1 X86.725 Y107.509 E6.89357
G1 X86.167 Y107.098 E6.904
G1 X85.661 Y106.626 E6.91441
G1 X85.212 Y106.098 E6.92484
G1 X84.827 Y105.523 E6.93526
G1 X84.512 Y104.906 E6.94568
G1 X84.269 Y104.258 E6.9561
G1 X84.102 Y103.585 E6.96653
G1 X84 Y102.79 E6.97859
G1 X84 Y72.502 E7.43438
G1 X84.04 Y71.811 E7.4448
G1 X84.159 Y71.128 E7.45523
G1 X84.357 Y70.465 E7.46564
G1 X84.629 Y69.828 E7.47606
G1 X84.973 Y69.227 E7.48648
G1 X85.384 Y68.669 E7.49691
G1 X85.856 Y68.163 E7.50733
G1 X86.384 Y67.714 E7.51776
G1 X86.959 Y67.329 E7.52817
G1 X87.576 Y67.014 E7.5386
G1 X88.224 Y66.771 E7.54901
G1 X88.897 Y66.604 E7.55944
G1 X89.692 Y66.502 E7.57151
G1 X139.999 Y66.502 E8.32855
G1 X140.69 Y66.542 E8.33896
G1 X141.373 Y66.661 E8.3494
G1 X142.036 Y66.859 E8.35981
G1 X142.673 Y67.131 E8.37023
G1 X143.274 Y67.475 E8.38065
G1 X143.832 Y67.886 E8.39108
G1 X144.338 Y68.358 E8.4015
G1 X144.787 Y68.886 E8.41193
G1 X145.172 Y69.461 E8.42234
G1 X145.487 Y70.078 E8.43276
G1 X145.73 Y70.726 E8.44318
G1 X145.897 Y71.399 E8.45361
G1 X145.999 Y72.194 E8.46567
G1 X145.999 Y102.482 E8.92146
G1 X145.959 Y103.173 E8.93188
G1 X145.84 Y103.856 E8.94231
G1 X145.642 Y104.519 E8.95272
G1 X145.37 Y105.156 E8.96315
G1 X145.026 Y105.757 E8.97357
G1 X144.615 Y106.315 E8.984
G1 X144.143 Y106.821 E8.99441
G1 X143.615 Y107.27 E9.00484
G1 X143.04 Y107.655 E9.01525
G1 X142.423 Y107.97 E9.02568
G1 X141.775 Y108.213 E9.03609
G1 X141.102 Y108.38 E9.04653
G1 X140.307 Y108.482 E9.05859
G0 F1636.4 X139.999 Y108.002
G1 F600 X90 Y108.002 E9.811
G1 X89.337 Y107.962 E9.82099
G1 X88.684 Y107.843 E9.83098
G1 X88.049 Y107.646 E9.84098
G1 X87.443 Y107.374 E9.85098
G1 X86.874 Y107.032 E9.86097
G1 X86.35 Y106.623 E9.87097
G1 X85.879 Y106.155 E9.88097
G1 X85.468 Y105.633 E9.89096
G1 X85.122 Y105.066 E9.90096
G1 X84.847 Y104.461 E9.91096
G1 X84.647 Y103.828 E9.92095
G1 X84.524 Y103.175 E9.93095
G1 X84.48 Y102.482 E9.9414
G1 X84.48 Y72.502 E10.39255
G1 X84.52 Y71.839 E10.40255
G1 X84.639 Y71.186 E10.41253
G1 X84.836 Y70.551 E10.42254
G1 X85.108 Y69.945 E10.43254
G1 X85.45 Y69.376 E10.44253
G1 X85.859 Y68.852 E10.45253
G1 X86.327 Y68.381 E10.46252
G1 X86.849 Y67.97 E10.47252
G1 X87.416 Y67.624 E10.48251
G1 X88.021 Y67.349 E10.49252
G1 X88.654 Y67.149 E10.5025
G1 X89.307 Y67.026 E10.5125
G1 X90 Y66.982 E10.52295
G1 X139.999 Y66.982 E11.27536
G1 X140.662 Y67.022 E11.28536
G1 X141.315 Y67.141 E11.29534
G1 X141.95 Y67.338 E11.30535
G1 X142.556 Y67.61 E11.31535
G1 X143.125 Y67.952 E11.32534
G1 X143.649 Y68.361 E11.33534
G1 X144.12 Y68.829 E11.34533
G1 X144.531 Y69.351 E11.35533
G1 X144.877 Y69.918 E11.36532
G1 X145.152 Y70.523 E11.37533
G1 X145.352 Y71.156 E11.38532
G1 X145.475 Y71.809 E11.39531
G1 X145.519 Y72.502 E11.40576
G1 X145.519 Y102.482 E11.85692
G1 X145.479 Y103.145 E11.86691
G1 X145.36 Y103.798 E11.8769
G1 X145.163 Y104.433 E11.88691
G1 X144.891 Y105.039 E11.8969
G1 X144.549 Y105.608 E11.90689
G1 X144.14 Y106.132 E11.91689
G1 X143.672 Y106.603 E11.92689
G1 X143.15 Y107.014 E11.93688
G1 X142.583 Y107.36 E11.94688
G1 X141.978 Y107.635 E11.95688
G1 X141.345 Y107.835 E11.96687
G1 X140.692 Y107.958 E11.97687
G1 X139.999 Y108.002 E11.98732
G0 F1636.4 X139.999 Y107.522
G1 F600 X90 Y107.522 E12.73973
G1 X89.367 Y107.482 E12.74927
G1 X88.743 Y107.363 E12.75883
G1 X88.14 Y107.166 E12.76838
G1 X87.566 Y106.895 E12.77793
G1 X87.031 Y106.554 E12.78748
G1 X86.542 Y106.149 E12.79703
G1 X86.109 Y105.685 E12.80658
G1 X85.737 Y105.171 E12.81613
G1 X85.433 Y104.614 E12.82568
G1 X85.201 Y104.023 E12.83523
G1 X85.046 Y103.408 E12.84478
G1 X84.96 Y102.482 E12.85877
G1 X84.96 Y72.502 E13.30992
G1 X85 Y71.869 E13.31947
G1 X85.119 Y71.245 E13.32903
G1 X85.316 Y70.642 E13.33857
G1 X85.587 Y70.068 E13.34813
G1 X85.928 Y69.533 E13.35767
G1 X86.333 Y69.044 E13.36723
G1 X86.797 Y68.611 E13.37678
G1 X87.311 Y68.239 E13.38633
G1 X87.868 Y67.935 E13.39588
G1 X88.459 Y67.703 E13.40543
G1 X89.074 Y67.548 E13.41498
G1 X90 Y67.462 E13.42897
G1 X139.999 Y67.462 E14.18138
G1 X140.632 Y67.502 E14.19092
G1 X141.256 Y67.621 E14.20048
G1 X141.859 Y67.818 E14.21003
G1 X142.433 Y68.089 E14.21958
G1 X142.968 Y68.43 E14.22913
G1 X143.457 Y68.835 E14.23868
G1 X143.89 Y69.299 E14.24823
G1 X144.262 Y69.813 E14.25778
G1 X144.566 Y70.37 E14.26733
G1 X144.798 Y70.961 E14.27688
G1 X144.953 Y71.576 E14.28643
G1 X145.039 Y72.502 E14.30042
G1 X145.039 Y102.482 E14.75158
G1 X144.999 Y103.115 E14.76112
G1 X144.88 Y103.739 E14.77068
G1 X144.683 Y104.342 E14.78023
G1 X144.412 Y104.916 E14.78978
G1 X144.071 Y105.451 E14.79933
G1 X143.666 Y105.94 E14.80888
G1 X143.202 Y106.373 E14.81843
G1 X142.688 Y106.745 E14.82798
G1 X142.131 Y107.049 E14.83753
G1 X141.54 Y107.281 E14.84708
G1 X140.925 Y107.436 E14.85663
G1 X139.999 Y107.522 E14.87062
G0 F1636.4 X139.999 Y107.042
G1 F600 X90 Y107.042 E15.62303
G1 X89.398 Y107.002 E15.63211
G1 X88.806 Y106.883 E15.64119
G1 X88.235 Y106.687 E15.65028
G1 X87.695 Y106.417 E15.65936
G1 X87.196 Y106.078 E15.66844
G1 X86.745 Y105.676 E15.67753
G1 X86.352 Y105.218 E15.68662
G1 X86.022 Y104.712 E15.69571
G1 X85.763 Y104.167 E15.70479
G1 X85.577 Y103.593 E15.71387
G1 X85.469 Y102.999 E15.72295
G1 X85.44 Y102.482 E15.73074
G1 X85.44 Y72.502 E16.1819
G1 X85.48 Y71.9 E16.19098
G1 X85.599 Y71.308 E16.20006
G1 X85.795 Y70.737 E16.20915
G1 X86.065 Y70.197 E16.21823
G1 X86.404 Y69.698 E16.22731
G1 X86.806 Y69.247 E16.2364
G1 X87.264 Y68.854 E16.24548
G1 X87.77 Y68.524 E16.25458
G1 X88.315 Y68.265 E16.26366
G1 X88.889 Y68.079 E16.27274
G1 X89.483 Y67.971 E16.28182
G1 X90 Y67.942 E16.28961
G1 X139.999 Y67.942 E17.04202
G1 X140.601 Y67.982 E17.0511
G1 X141.193 Y68.101 E17.06019
G1 X141.764 Y68.297 E17.06927
G1 X142.304 Y68.567 E17.07836
G1 X142.803 Y68.906 E17.08743
G1 X143.254 Y69.308 E17.09653
G1 X143.647 Y69.766 E17.10561
G1 X143.977 Y70.272 E17.1147
G1 X144.236 Y70.817 E17.12378
G1 X144.422 Y71.391 E17.13286
G1 X144.53 Y71.985 E17.14194
G1 X144.559 Y72.502 E17.14974
G1 X144.559 Y102.482 E17.60089
G1 X144.519 Y103.084 E17.60997
G1 X144.4 Y103.676 E17.61906
G1 X144.204 Y104.247 E17.62814
G1 X143.934 Y104.787 E17.63723
G1 X143.595 Y105.286 E17.6463
G1 X143.193 Y105.737 E17.6554
G1 X142.735 Y106.13 E17.66448
G1 X142.229 Y106.46 E17.67357
G1 X141.684 Y106.719 E17.68265
G1 X141.11 Y106.905 E17.69173
G1 X140.516 Y107.013 E17.70081
G1 X139.999 Y107.042 E17.70861
G0 F1636.4 X139.999 Y106.562
G1 F600 X90 Y106.562 E18.46101
G1 X89.43 Y106.522 E18.46961
G1 X88.872 Y106.403 E18.4782
G1 X88.336 Y106.207 E18.48679
G1 X87.832 Y105.938 E18.49538
G1 X87.371 Y105.602 E18.50397
G1 X86.961 Y105.204 E18.51257
G1 X86.611 Y104.753 E18.52116
G1 X86.327 Y104.258 E18.52974
G1 X86.115 Y103.728 E18.53833
G1 X85.979 Y103.173 E18.54693
G1 X85.92 Y102.482 E18.55737
G1 X85.92 Y72.502 E19.00852
G1 X85.96 Y71.932 E19.01712
G1 X86.079 Y71.374 E19.02571
G1 X86.275 Y70.838 E19.0343
G1 X86.544 Y70.334 E19.04289
G1 X86.88 Y69.873 E19.05148
G1 X87.278 Y69.463 E19.06008
G1 X87.729 Y69.113 E19.06867
G1 X88.224 Y68.829 E19.07725
G1 X88.754 Y68.617 E19.08584
G1 X89.309 Y68.481 E19.09444
G1 X90 Y68.422 E19.10488
G1 X139.999 Y68.422 E19.85729
G1 X140.569 Y68.462 E19.86589
G1 X141.127 Y68.581 E19.87447
G1 X141.663 Y68.777 E19.88306
G1 X142.167 Y69.046 E19.89166
G1 X142.628 Y69.382 E19.90024
G1 X143.038 Y69.78 E19.90884
G1 X143.388 Y70.231 E19.91743
G1 X143.672 Y70.726 E19.92602
G1 X143.884 Y71.256 E19.93461
G1 X144.02 Y71.811 E19.94321
G1 X144.079 Y72.502 E19.95364
G1 X144.079 Y102.482 E20.4048
G1 X144.039 Y103.052 E20.4134
G1 X143.92 Y103.61 E20.42198
G1 X143.724 Y104.146 E20.43057
G1 X143.455 Y104.65 E20.43917
G1 X143.119 Y105.111 E20.44775
G1 X142.721 Y105.521 E20.45635
G1 X142.27 Y105.871 E20.46494
G1 X141.775 Y106.155 E20.47353
G1 X141.245 Y106.367 E20.48212
G1 X140.69 Y106.503 E20.49072
G1 X139.999 Y106.562 E20.50115
G0 F1636.4 X140.216 Y106.082
G1 F600 X90 Y106.082 E21.25683
G1 X89.465 Y106.042 E21.2649
G1 X88.942 Y105.923 E21.27297
G1 X88.443 Y105.728 E21.28103
G1 X87.978 Y105.46 E21.28911
G1 X87.558 Y105.127 E21.29718
G1 X87.192 Y104.735 E21.30525
G1 X86.889 Y104.293 E21.31331
G1 X86.654 Y103.81 E21.32139
G1 X86.494 Y103.299 E21.32945
G1 X86.4 Y102.699 E21.33859
G1 X86.4 Y72.502 E21.79301
G1 X86.44 Y71.967 E21.80108
G1 X86.559 Y71.444 E21.80915
G1 X86.754 Y70.945 E21.81722
G1 X87.022 Y70.48 E21.82529
G1 X87.355 Y70.06 E21.83336
G1 X87.747 Y69.694 E21.84143
G1 X88.189 Y69.391 E21.84949
G1 X88.672 Y69.156 E21.85758
G1 X89.183 Y68.996 E21.86563
G1 X89.783 Y68.902 E21.87477
G1 X139.999 Y68.902 E22.63045
G1 X140.534 Y68.942 E22.63852
G1 X141.057 Y69.061 E22.64659
G1 X141.556 Y69.256 E22.65465
G1 X142.021 Y69.524 E22.66273
G1 X142.441 Y69.857 E22.6708
G1 X142.807 Y70.249 E22.67887
G1 X143.11 Y70.691 E22.68693
G1 X143.345 Y71.174 E22.69501
G1 X143.505 Y71.685 E22.70307
G1 X143.599 Y72.285 E22.71221
G1 X143.599 Y102.482 E23.16663
G1 X143.559 Y103.017 E23.1747
G1 X143.44 Y103.54 E23.18277
G1 X143.245 Y104.039 E23.19084
G1 X142.977 Y104.504 E23.19891
G1 X142.644 Y104.924 E23.20698
G1 X142.252 Y105.29 E23.21505
G1 X141.81 Y105.593 E23.22311
G1 X141.327 Y105.828 E23.2312
G1 X140.816 Y105.988 E23.23925
G1 X140.216 Y106.082 E23.24839
G0 F1636.4 X140.279 Y105.602
G1 F600 X89.623 Y105.602 E24.01069
G1 X88.558 Y105.249 E24.02757
G1 X87.76 Y104.654 E24.04255
G1 X87.442 Y104.269 E24.05006
G1 X87.19 Y103.838 E24.05758
G1 X87.01 Y103.372 E24.0651
G1 X86.88 Y102.762 E24.07448
G1 X86.88 Y72.167 E24.53489
G1 X87.039 Y71.52 E24.54491
G1 X87.233 Y71.06 E24.55243
G1 X87.828 Y70.262 E24.56741
G1 X88.213 Y69.944 E24.57492
G1 X88.644 Y69.692 E24.58243
G1 X89.11 Y69.512 E24.58995
G1 X89.72 Y69.382 E24.59934
G1 X140.376 Y69.382 E25.36163
G1 X141.441 Y69.735 E25.37851
G1 X142.239 Y70.33 E25.39349
G1 X142.557 Y70.715 E25.40101
G1 X142.809 Y71.146 E25.40852
G1 X142.989 Y71.612 E25.41604
G1 X143.119 Y72.222 E25.42543
G1 X143.119 Y102.817 E25.88583
G1 X142.96 Y103.464 E25.89586
G1 X142.766 Y103.924 E25.90337
G1 X142.171 Y104.722 E25.91835
G1 X141.786 Y105.04 E25.92586
G1 X141.355 Y105.292 E25.93338
G1 X140.889 Y105.472 E25.9409
G1 X140.279 Y105.602 E25.95028
G0 F1636.4 X139.999 Y105.122
G1 F600 X90 Y105.122 E26.70269
G1 X89.099 Y104.964 E26.71645
G1 X88.306 Y104.507 E26.73023
G1 X87.981 Y104.183 E26.73713
G1 X87.522 Y103.392 E26.7509
G1 X87.402 Y102.949 E26.7578
G1 X87.36 Y102.482 E26.76486
G1 X87.36 Y72.196 E27.22062
G1 X87.518 Y71.601 E27.22988
G1 X87.975 Y70.808 E27.24365
G1 X88.299 Y70.483 E27.25056
G1 X89.09 Y70.024 E27.26432
G1 X89.533 Y69.904 E27.27123
G1 X90 Y69.862 E27.27828
G1 X139.999 Y69.862 E28.03069
G1 X140.9 Y70.02 E28.04446
G1 X141.693 Y70.477 E28.05823
G1 X142.018 Y70.801 E28.06514
G1 X142.477 Y71.592 E28.0789
G1 X142.597 Y72.035 E28.0858
G1 X142.639 Y72.502 E28.09286
G1 X142.639 Y102.788 E28.54862
G1 X142.481 Y103.383 E28.55788
G1 X142.024 Y104.176 E28.57165
G1 X141.7 Y104.501 E28.57856
G1 X140.909 Y104.96 E28.59232
G1 X140.466 Y105.08 E28.59923
G1 X139.999 Y105.122 E28.60629
G0 F1636.4 X139.999 Y104.642
