;START_OF_HEADER
;HEADER_VERSION:0.1
;FLAVOR:Griffin
;GENERATOR.NAME:Cura_SteamEngine
;GENERATOR.VERSION:main
;GENERATOR.BUILD_DATE:2022-07-19
;TARGET_MACHINE.NAME:Ultimaker S3
;EXTRUDER_TRAIN.0.INITIAL_TEMPERATURE:235
;EXTRUDER_TRAIN.0.MATERIAL.VOLUME_USED:10615
;EXTRUDER_TRAIN.0.MATERIAL.GUID:60636bb4-518f-42e7-8237-fe77b194ebe0
;EXTRUDER_TRAIN.0.NOZZLE.DIAMETER:0.4
;EXTRUDER_TRAIN.0.NOZZLE.NAME:AA 0.4
;BUILD_PLATE.TYPE:glass
;BUILD_PLATE.INITIAL_TEMPERATURE:110
;PRINT.TIME:3874
;PRINT.GROUPS:1
;PRINT.SIZE.MIN.X:87.697
;PRINT.SIZE.MIN.Y:74.253
;PRINT.SIZE.MIN.Z:0.2
;PRINT.SIZE.MAX.X:142.302
;PRINT.SIZE.MAX.Y:109.74
;PRINT.SIZE.MAX.Z:24.95
;END_OF_HEADER
;Generated with Cura_SteamEngine main
T0
M82 ;absolute extrusion mode

G92 E0
M109 S235
G280 S1
G0 Z20.001
G1 F2700 E-6.5
;LAYER_COUNT:100
;LAYER:0
M107
M204 S1000
M205 X20 Y20
G1 F600 Z2.2
G0 F1636.4 X135.884 Y108.601 Z2.2
G0 X132.07 Y109.739
;TYPE:SKIRT
G1 F600 Z0.2
G1 F900 E0
G1 F600 X97.904 Y109.74 E0.51415
G1 X97.159 Y109.7 E0.52537
G1 X96.423 Y109.581 E0.53659
G1 X95.704 Y109.383 E0.54781
G1 X95.01 Y109.11 E0.55904
G1 X94.349 Y108.764 E0.57026
G1 X93.729 Y108.349 E0.58149
G1 X93.157 Y107.87 E0.59272
G1 X92.405 Y107.064 E0.60931
G1 X91.866 Y106.32 E0.62313
G1 X91.495 Y105.673 E0.63436
G1 X91.196 Y104.99 E0.64558
G1 X90.972 Y104.278 E0.65681
G1 X90.825 Y103.547 E0.66803
G1 X90.752 Y102.544 E0.68316
G1 X90.75 Y81.438 E1.00077
G1 X90.79 Y80.693 E1.012
G1 X90.909 Y79.956 E1.02324
G1 X91.107 Y79.237 E1.03446
G1 X91.38 Y78.543 E1.04568
G1 X91.726 Y77.882 E1.05691
G1 X92.141 Y77.262 E1.06814
G1 X92.836 Y76.453 E1.08419
G1 X93.514 Y75.834 E1.098
G1 X94.115 Y75.392 E1.10923
G1 X94.76 Y75.017 E1.12046
G1 X95.441 Y74.714 E1.13167
G1 X96.151 Y74.485 E1.1429
G1 X96.881 Y74.333 E1.15412
G1 X97.929 Y74.254 E1.16994
G1 X132.099 Y74.253 E1.68414
G1 X132.844 Y74.293 E1.69537
G1 X133.58 Y74.412 E1.70659
G1 X134.299 Y74.61 E1.71781
G1 X134.993 Y74.883 E1.72903
G1 X135.654 Y75.229 E1.74026
G1 X136.634 Y75.922 E1.75832
G1 X137.29 Y76.53 E1.77178
G1 X137.779 Y77.093 E1.783
G1 X138.206 Y77.705 E1.79423
G1 X138.564 Y78.359 E1.80545
G1 X138.851 Y79.048 E1.81668
G1 X139.062 Y79.763 E1.8279
G1 X139.195 Y80.497 E1.83913
G1 X139.25 Y81.372 E1.85232
G1 X139.249 Y102.556 E2.17111
G1 X139.209 Y103.301 E2.18234
G1 X139.09 Y104.037 E2.19356
G1 X138.892 Y104.757 E2.20479
G1 X138.618 Y105.451 E2.21602
G1 X138.272 Y106.111 E2.22723
G1 X137.857 Y106.731 E2.23846
G1 X137.164 Y107.539 E2.25448
G1 X136.485 Y108.159 E2.26832
G1 X135.884 Y108.601 E2.27954
G1 X135.239 Y108.976 E2.29077
G1 X134.558 Y109.279 E2.30199
G1 X133.848 Y109.508 E2.31321
G1 X133.118 Y109.66 E2.32444
G1 X132.07 Y109.739 E2.34025
G0 F1636.4 X132.07 Y109.259
G1 F600 X97.904 Y109.26 E2.8544
G1 X97.186 Y109.22 E2.86522
G1 X96.476 Y109.101 E2.87605
G1 X95.784 Y108.903 E2.88688
G1 X95.118 Y108.63 E2.89771
G1 X94.486 Y108.285 E2.90855
G1 X93.897 Y107.872 E2.91937
G1 X93.357 Y107.397 E2.9302
G1 X92.767 Y106.746 E2.94342
G1 X92.256 Y106.039 E2.95655
G1 X91.902 Y105.412 E2.96738
G1 X91.619 Y104.75 E2.97822
G1 X91.412 Y104.061 E2.98904
G1 X91.283 Y103.353 E2.99987
G1 X91.232 Y102.544 E3.01207
G1 X91.23 Y81.438 E3.32968
G1 X91.27 Y80.719 E3.34052
G1 X91.389 Y80.009 E3.35135
G1 X91.587 Y79.317 E3.36218
G1 X91.859 Y78.651 E3.37301
G1 X92.204 Y78.019 E3.38384
G1 X92.617 Y77.43 E3.39467
G1 X93.192 Y76.778 E3.40775
G1 X93.838 Y76.189 E3.42091
G1 X94.42 Y75.766 E3.43173
G1 X95.046 Y75.411 E3.44256
G1 X95.707 Y75.127 E3.45339
G1 X96.396 Y74.918 E3.46423
G1 X97.104 Y74.787 E3.47506
G1 X97.929 Y74.734 E3.4875
G1 X132.099 Y74.733 E4.00171
G1 X132.817 Y74.773 E4.01253
G1 X133.527 Y74.892 E4.02336
G1 X134.219 Y75.09 E4.03419
G1 X134.885 Y75.363 E4.04502
G1 X135.517 Y75.708 E4.05586
G1 X136.334 Y76.297 E4.07102
G1 X136.963 Y76.882 E4.08394
G1 X137.432 Y77.428 E4.09477
G1 X137.837 Y78.023 E4.10561
G1 X138.174 Y78.658 E4.11642
G1 X138.439 Y79.328 E4.12727
G1 X138.628 Y80.022 E4.13809
G1 X138.738 Y80.733 E4.14892
G1 X138.77 Y81.372 E4.15854
G1 X138.769 Y102.556 E4.47733
G1 X138.729 Y103.275 E4.48817
G1 X138.61 Y103.985 E4.499
G1 X138.412 Y104.677 E4.50983
G1 X138.139 Y105.343 E4.52066
G1 X137.794 Y105.974 E4.53149
G1 X137.381 Y106.564 E4.54232
G1 X136.807 Y107.215 E4.55538
G1 X136.161 Y107.804 E4.56854
G1 X135.579 Y108.227 E4.57937
G1 X134.953 Y108.582 E4.5902
G1 X134.292 Y108.866 E4.60102
G1 X133.603 Y109.075 E4.61186
G1 X132.895 Y109.206 E4.62269
G1 X132.07 Y109.259 E4.63513
G0 F1636.4 X132.07 Y108.779
G1 F600 X97.904 Y108.78 E5.14928
G1 X97.213 Y108.74 E5.15969
G1 X96.531 Y108.621 E5.17011
G1 X95.867 Y108.424 E5.18054
G1 X95.23 Y108.151 E5.19096
G1 X94.629 Y107.807 E5.20139
G1 X94.071 Y107.396 E5.21181
G1 X93.565 Y106.924 E5.22223
G1 X93.05 Y106.32 E5.23417
G1 X92.646 Y105.758 E5.24459
G1 X92.309 Y105.152 E5.25502
G1 X92.044 Y104.512 E5.26545
G1 X91.855 Y103.846 E5.27586
G1 X91.744 Y103.163 E5.28628
G1 X91.712 Y102.544 E5.2956
G1 X91.71 Y81.438 E5.61322
G1 X91.75 Y80.746 E5.62365
G1 X91.869 Y80.064 E5.63407
G1 X92.066 Y79.4 E5.64449
G1 X92.339 Y78.763 E5.65492
G1 X92.682 Y78.162 E5.66533
G1 X93.093 Y77.605 E5.67575
G1 X93.551 Y77.098 E5.68603
G1 X94.161 Y76.545 E5.69842
G1 X94.724 Y76.142 E5.70884
G1 X95.33 Y75.806 E5.71927
G1 X95.971 Y75.543 E5.72969
G1 X96.637 Y75.355 E5.74011
G1 X97.321 Y75.245 E5.75053
G1 X97.929 Y75.214 E5.75969
G1 X132.099 Y75.213 E6.2739
G1 X132.79 Y75.253 E6.28431
G1 X133.472 Y75.372 E6.29473
G1 X134.136 Y75.569 E6.30516
G1 X134.773 Y75.842 E6.31558
G1 X135.374 Y76.186 E6.32601
G1 X136.037 Y76.675 E6.3384
G1 X136.635 Y77.234 E6.35072
G1 X137.082 Y77.762 E6.36113
G1 X137.466 Y78.338 E6.37155
G1 X137.782 Y78.955 E6.38198
G1 X138.024 Y79.604 E6.3924
G1 X138.189 Y80.276 E6.40282
G1 X138.29 Y81.074 E6.41492
G1 X138.289 Y102.556 E6.73819
G1 X138.249 Y103.248 E6.74862
G1 X138.13 Y103.93 E6.75904
G1 X137.932 Y104.594 E6.76947
G1 X137.66 Y105.23 E6.77988
G1 X137.316 Y105.831 E6.7903
G1 X136.905 Y106.389 E6.80073
G1 X136.351 Y106.983 E6.81295
G1 X135.838 Y107.448 E6.82337
G1 X135.275 Y107.851 E6.83379
G1 X134.669 Y108.187 E6.84422
G1 X134.028 Y108.45 E6.85464
G1 X133.362 Y108.638 E6.86506
G1 X132.678 Y108.748 E6.87548
G1 X132.07 Y108.779 E6.88464
G0 F1636.4 X132.362 Y108.299
G1 F600 X97.904 Y108.3 E7.40318
G1 X97.241 Y108.26 E7.41318
G1 X96.588 Y108.141 E7.42317
G1 X95.953 Y107.944 E7.43317
G1 X95.347 Y107.672 E7.44317
G1 X94.778 Y107.33 E7.45316
G1 X94.254 Y106.921 E7.46316
G1 X93.526 Y106.162 E7.47899
G1 X93.037 Y105.477 E7.49165
G1 X92.718 Y104.895 E7.50164
G1 X92.472 Y104.278 E7.51164
G1 X92.301 Y103.636 E7.52163
G1 X92.192 Y102.857 E7.53347
G1 X92.19 Y81.438 E7.85579
G1 X92.23 Y80.774 E7.8658
G1 X92.349 Y80.121 E7.87579
G1 X92.546 Y79.487 E7.88578
G1 X92.818 Y78.881 E7.89578
G1 X93.16 Y78.311 E7.90578
G1 X93.854 Y77.47 E7.92219
G1 X94.484 Y76.901 E7.93497
G1 X95.027 Y76.519 E7.94496
G1 X95.612 Y76.204 E7.95495
G1 X96.23 Y75.962 E7.96494
G1 X96.873 Y75.796 E7.97494
G1 X97.637 Y75.694 E7.98653
G1 X132.099 Y75.693 E8.50513
G1 X132.762 Y75.733 E8.51513
G1 X133.415 Y75.852 E8.52512
G1 X134.05 Y76.049 E8.53512
G1 X134.656 Y76.321 E8.54512
G1 X135.225 Y76.663 E8.55511
G1 X135.744 Y77.057 E8.56491
G1 X136.306 Y77.585 E8.57652
G1 X136.731 Y78.094 E8.5865
G1 X137.093 Y78.651 E8.59649
G1 X137.385 Y79.248 E8.60649
G1 X137.603 Y79.875 E8.61648
G1 X137.745 Y80.524 E8.62648
G1 X137.81 Y81.372 E8.63928
G1 X137.809 Y102.556 E8.95807
G1 X137.769 Y103.219 E8.96806
G1 X137.65 Y103.873 E8.97807
G1 X137.453 Y104.507 E8.98806
G1 X137.181 Y105.113 E8.99805
G1 X136.838 Y105.682 E9.00805
G1 X136.146 Y106.523 E9.02444
G1 X135.515 Y107.092 E9.03722
G1 X134.972 Y107.474 E9.04722
G1 X134.387 Y107.789 E9.05721
G1 X133.769 Y108.031 E9.0672
G1 X133.126 Y108.197 E9.0772
G1 X132.362 Y108.299 E9.08879
G0 F1636.4 X132.07 Y107.819
G1 F600 X97.904 Y107.82 E9.60294
G1 X97.271 Y107.78 E9.61248
G1 X96.647 Y107.661 E9.62204
G1 X96.044 Y107.464 E9.63159
G1 X95.47 Y107.193 E9.64114
G1 X94.935 Y106.852 E9.65069
G1 X94.446 Y106.447 E9.66024
G1 X93.887 Y105.844 E9.67262
G1 X93.428 Y105.198 E9.68454
G1 X93.128 Y104.639 E9.69409
G1 X92.901 Y104.046 E9.70364
G1 X92.751 Y103.43 E9.71319
G1 X92.672 Y102.543 E9.72659
G1 X92.67 Y81.437 E10.0442
G1 X92.71 Y80.804 E10.05374
G1 X92.829 Y80.181 E10.06329
G1 X93.026 Y79.577 E10.07285
G1 X93.297 Y79.003 E10.0824
G1 X93.637 Y78.468 E10.09194
G1 X94.208 Y77.795 E10.10522
G1 X94.805 Y77.259 E10.1173
G1 X95.327 Y76.897 E10.12685
G1 X95.89 Y76.605 E10.1364
G1 X96.486 Y76.385 E10.14596
G1 X97.104 Y76.242 E10.1555
G1 X97.929 Y76.174 E10.16796
G1 X132.099 Y76.173 E10.68217
G1 X132.732 Y76.213 E10.69171
G1 X133.356 Y76.332 E10.70127
G1 X133.959 Y76.529 E10.71082
G1 X134.533 Y76.8 E10.72037
G1 X135.068 Y77.141 E10.72992
G1 X135.515 Y77.499 E10.73853
G1 X135.976 Y77.934 E10.74807
G1 X136.379 Y78.425 E10.75763
G1 X136.717 Y78.962 E10.76718
G1 X136.984 Y79.538 E10.77673
G1 X137.178 Y80.142 E10.78628
G1 X137.293 Y80.766 E10.79583
G1 X137.33 Y81.372 E10.80497
G1 X137.329 Y102.556 E11.12375
G1 X137.289 Y103.19 E11.13331
G1 X137.17 Y103.813 E11.14286
G1 X136.973 Y104.416 E11.1524
G1 X136.702 Y104.99 E11.16195
G1 X136.361 Y105.526 E11.17151
G1 X135.791 Y106.197 E11.18476
G1 X135.194 Y106.734 E11.19685
G1 X134.672 Y107.096 E11.20641
G1 X134.109 Y107.388 E11.21595
G1 X133.513 Y107.608 E11.22551
G1 X132.895 Y107.751 E11.23506
G1 X132.07 Y107.819 E11.24751
G0 F1636.4 X132.07 Y107.339
G1 F600 X97.904 Y107.34 E11.76166
G1 X97.302 Y107.3 E11.77074
G1 X96.71 Y107.181 E11.77982
G1 X96.139 Y106.985 E11.78891
G1 X95.599 Y106.715 E11.79799
G1 X95.1 Y106.376 E11.80707
G1 X94.649 Y105.974 E11.81616
G1 X94.169 Y105.413 E11.82728
G1 X93.821 Y104.92 E11.83636
G1 X93.541 Y104.385 E11.84544
G1 X93.334 Y103.818 E11.85453
G1 X93.204 Y103.229 E11.8636
G1 X93.152 Y102.543 E11.87396
G1 X93.15 Y81.437 E12.19157
G1 X93.19 Y80.835 E12.20065
G1 X93.309 Y80.243 E12.20973
G1 X93.505 Y79.672 E12.21882
G1 X93.775 Y79.132 E12.2279
G1 X94.114 Y78.633 E12.23698
G1 X94.568 Y78.116 E12.24734
G1 X95.126 Y77.617 E12.2586
G1 X95.626 Y77.278 E12.26769
G1 X96.166 Y77.009 E12.27677
G1 X96.737 Y76.813 E12.28586
G1 X97.329 Y76.694 E12.29494
G1 X97.929 Y76.654 E12.30399
G1 X132.099 Y76.653 E12.8182
G1 X132.701 Y76.693 E12.82728
G1 X133.293 Y76.812 E12.83636
G1 X133.864 Y77.008 E12.84545
G1 X134.404 Y77.278 E12.85453
G1 X135.107 Y77.772 E12.86746
G1 X135.645 Y78.283 E12.87863
G1 X136.023 Y78.754 E12.88772
G1 X136.337 Y79.27 E12.89681
G1 X136.579 Y79.823 E12.90589
G1 X136.746 Y80.403 E12.91497
G1 X136.85 Y81.101 E12.92559
G1 X136.849 Y102.556 E13.24846
G1 X136.809 Y103.159 E13.25755
G1 X136.69 Y103.75 E13.26662
G1 X136.494 Y104.321 E13.27571
G1 X136.223 Y104.861 E13.2848
G1 X135.885 Y105.361 E13.29388
G1 X135.43 Y105.879 E13.30426
G1 X134.873 Y106.376 E13.31549
G1 X134.373 Y106.715 E13.32458
G1 X133.833 Y106.984 E13.33366
G1 X133.262 Y107.18 E13.34275
G1 X132.67 Y107.299 E13.35183
G1 X132.07 Y107.339 E13.36088
G0 F1636.4 X132.345 Y106.859
G1 F600 X97.904 Y106.86 E13.87916
G1 X97.335 Y106.82 E13.88775
G1 X96.776 Y106.701 E13.89635
G1 X96.24 Y106.505 E13.90494
G1 X95.736 Y106.236 E13.91353
G1 X95.275 Y105.9 E13.92212
G1 X94.644 Y105.256 E13.93569
G1 X94.214 Y104.644 E13.94694
G1 X93.955 Y104.135 E13.95554
G1 X93.77 Y103.595 E13.96413
G1 X93.632 Y102.878 E13.97511
G1 X93.63 Y81.437 E14.29777
G1 X93.67 Y80.868 E14.30635
G1 X93.789 Y80.309 E14.31495
G1 X93.985 Y79.773 E14.32354
G1 X94.253 Y79.269 E14.33213
G1 X94.59 Y78.808 E14.34072
G1 X95.018 Y78.355 E14.3501
G1 X95.446 Y77.977 E14.3587
G1 X95.922 Y77.662 E14.36728
G1 X96.437 Y77.416 E14.37587
G1 X96.982 Y77.245 E14.38447
G1 X97.654 Y77.134 E14.39472
G1 X132.099 Y77.133 E14.91306
G1 X132.668 Y77.173 E14.92165
G1 X133.227 Y77.292 E14.93025
G1 X133.763 Y77.488 E14.93883
G1 X134.267 Y77.757 E14.94743
G1 X134.811 Y78.151 E14.95754
G1 X135.313 Y78.631 E14.96799
G1 X135.666 Y79.08 E14.97659
G1 X135.952 Y79.574 E14.98518
G1 X136.168 Y80.103 E14.99378
G1 X136.307 Y80.656 E15.00236
G1 X136.37 Y81.372 E15.01317
G1 X136.369 Y102.556 E15.33196
G1 X136.329 Y103.126 E15.34056
G1 X136.21 Y103.684 E15.34914
G1 X136.014 Y104.22 E15.35773
G1 X135.745 Y104.724 E15.36633
G1 X135.409 Y105.185 E15.37491
G1 X134.981 Y105.638 E15.38429
G1 X134.553 Y106.016 E15.39288
G1 X134.077 Y106.331 E15.40147
G1 X133.562 Y106.577 E15.41006
G1 X133.017 Y106.748 E15.41866
G1 X132.345 Y106.859 E15.42891
G0 F1636.4 X132.07 Y106.379
G1 F600 X97.904 Y106.38 E15.94305
G1 X97.369 Y106.34 E15.95113
G1 X96.846 Y106.221 E15.9592
G1 X96.347 Y106.026 E15.96726
G1 X95.882 Y105.759 E15.97533
G1 X95.462 Y105.425 E15.9834
G1 X95.001 Y104.933 E15.99355
G1 X94.609 Y104.368 E16.0039
G1 X94.372 Y103.887 E16.01197
G1 X94.21 Y103.376 E16.02003
G1 X94.112 Y102.766 E16.02933
G1 X94.11 Y81.437 E16.3503
G1 X94.15 Y80.903 E16.35836
G1 X94.269 Y80.38 E16.36643
G1 X94.464 Y79.88 E16.37451
G1 X94.731 Y79.415 E16.38258
G1 X95.232 Y78.805 E16.39445
G1 X95.764 Y78.338 E16.40511
G1 X96.215 Y78.048 E16.41318
G1 X96.704 Y77.829 E16.42124
G1 X97.221 Y77.684 E16.42932
G1 X97.929 Y77.614 E16.44003
G1 X132.099 Y77.613 E16.95423
G1 X132.634 Y77.653 E16.9623
G1 X133.157 Y77.772 E16.97038
G1 X133.656 Y77.967 E16.97844
G1 X134.121 Y78.234 E16.98651
G1 X134.593 Y78.605 E16.99554
G1 X134.979 Y78.978 E17.00362
G1 X135.304 Y79.404 E17.01168
G1 X135.563 Y79.874 E17.01976
G1 X135.75 Y80.377 E17.02783
G1 X135.89 Y81.051 E17.03819
G1 X135.889 Y102.556 E17.36181
G1 X135.849 Y103.091 E17.36988
G1 X135.73 Y103.614 E17.37795
G1 X135.535 Y104.113 E17.38602
G1 X135.267 Y104.578 E17.39409
G1 X134.768 Y105.188 E17.40595
G1 X134.235 Y105.655 E17.41662
G1 X133.784 Y105.945 E17.42469
G1 X133.295 Y106.164 E17.43275
G1 X132.778 Y106.309 E17.44083
G1 X132.07 Y106.379 E17.45153
G0 F1636.4 X132.392 Y105.899
G1 F600 X97.527 Y105.9 E17.9762
G1 X96.462 Y105.547 E17.99308
G1 X95.664 Y104.952 E18.00806
G1 X95.09 Y104.272 E18.02145
G1 X94.793 Y103.644 E18.03191
G1 X94.654 Y103.164 E18.03943
G1 X94.592 Y102.543 E18.04882
G1 X94.59 Y81.103 E18.37146
G1 X94.749 Y80.455 E18.3815
G1 X94.943 Y79.995 E18.38901
G1 X95.209 Y79.572 E18.39653
G1 X95.897 Y78.814 E18.41194
G1 X96.505 Y78.438 E18.42269
G1 X96.966 Y78.246 E18.43021
G1 X97.607 Y78.094 E18.44012
G1 X132.476 Y78.093 E18.96485
G1 X133.541 Y78.446 E18.98173
G1 X134.095 Y78.815 E18.99175
G1 X134.643 Y79.323 E19.00299
G1 X134.94 Y79.725 E19.01051
G1 X135.324 Y80.643 E19.02549
G1 X135.41 Y81.372 E19.03653
G1 X135.409 Y102.891 E19.36036
G1 X135.25 Y103.539 E19.3704
G1 X135.056 Y103.998 E19.3779
G1 X134.79 Y104.421 E19.38542
G1 X134.102 Y105.179 E19.40082
G1 X133.494 Y105.555 E19.41158
G1 X133.033 Y105.747 E19.4191
G1 X132.392 Y105.899 E19.42901
G0 F1636.4 X132.258 Y105.419
G1 F600 X97.598 Y105.42 E19.95059
G1 X97.003 Y105.262 E19.95985
G1 X96.21 Y104.805 E19.97363
G1 X95.853 Y104.442 E19.98129
G1 X95.404 Y103.824 E19.99278
G1 X95.217 Y103.405 E19.99969
G1 X95.072 Y102.829 E20.00863
G1 X95.07 Y81.131 E20.33515
G1 X95.228 Y80.536 E20.34441
G1 X95.422 Y80.12 E20.35132
G1 X95.826 Y79.587 E20.36138
G1 X96.394 Y79.066 E20.37298
G1 X96.79 Y78.832 E20.37991
G1 X97.22 Y78.671 E20.38681
G1 X97.741 Y78.574 E20.39479
G1 X132.405 Y78.573 E20.91643
G1 X133 Y78.731 E20.92569
G1 X133.416 Y78.925 E20.9326
G1 X134.185 Y79.496 E20.94701
G1 X134.57 Y80.041 E20.95706
G1 X134.766 Y80.456 E20.96396
G1 X134.887 Y80.899 E20.97087
G1 X134.93 Y81.372 E20.97802
G1 X134.929 Y102.865 E21.30146
G1 X134.77 Y103.457 E21.31068
G1 X134.577 Y103.873 E21.31758
G1 X134.173 Y104.406 E21.32765
G1 X133.605 Y104.927 E21.33924
G1 X133.209 Y105.161 E21.34617
G1 X132.779 Y105.322 E21.35308
G1 X132.258 Y105.419 E21.36105
