;START_OF_HEADER
;HEADER_VERSION:0.1
;FLAVOR:Griffin
;GENERATOR.NAME:Cura_SteamEngine
;GENERATOR.VERSION:main
;GENERATOR.BUILD_DATE:2022-07-19
;TARGET_MACHINE.NAME:Ultimaker S3
;EXTRUDER_TRAIN.0.INITIAL_TEMPERATURE:235
;EXTRUDER_TRAIN.0.MATERIAL.VOLUME_USED:133212
;EXTRUDER_TRAIN.0.MATERIAL.GUID:60636bb4-518f-42e7-8237-fe77b194ebe0
;EXTRUDER_TRAIN.0.NOZZLE.DIAMETER:0.4
;EXTRUDER_TRAIN.0.NOZZLE.NAME:AA 0.4
;BUILD_PLATE.TYPE:glass
;BUILD_PLATE.INITIAL_TEMPERATURE:110
;PRINT.TIME:40786
;PRINT.GROUPS:1
;PRINT.SIZE.MIN.X:50.023
;PRINT.SIZE.MIN.Y:67.75
;PRINT.SIZE.MIN.Z:0.2
;PRINT.SIZE.MAX.X:179.976
;PRINT.SIZE.MAX.Y:115.089
;PRINT.SIZE.MAX.Z:115.95
;END_OF_HEADER
;Generated with Cura_SteamEngine main
T0
M82 ;absolute extrusion mode

G92 E0
M109 S235
G280 S1
G0 Z20.001
G1 F2700 E-6.5
;LAYER_COUNT:464
;LAYER:0
M107
M204 S1000
M205 X20 Y20
G1 F600 Z2.2
G0 F1636.4 X173.363 Y90.326 Z2.2
;TYPE:SKIRT
G1 F600 Z0.2
G1 F900 E0
G1 F600 X56.983 Y90.326 E1.75134
G1 X56.238 Y90.286 E1.76257
G1 X55.502 Y90.167 E1.77378
G1 X54.783 Y89.969 E1.78501
G1 X54.089 Y89.696 E1.79623
G1 X53.428 Y89.349 E1.80746
G1 X52.808 Y88.935 E1.81868
G1 X52.236 Y88.456 E1.82991
G1 X51.718 Y87.919 E1.84114
G1 X51.261 Y87.329 E1.85237
G1 X50.87 Y86.694 E1.86359
G1 X50.549 Y86.021 E1.87481
G1 X50.302 Y85.317 E1.88604
G1 X50.132 Y84.591 E1.89726
G1 X50.023 Y83.713 E1.91057
G1 X50.023 Y74.71 E2.04605
G1 X50.063 Y73.965 E2.05728
G1 X50.182 Y73.229 E2.0685
G1 X50.38 Y72.51 E2.07972
G1 X50.653 Y71.816 E2.09095
G1 X51 Y71.155 E2.10218
G1 X51.414 Y70.535 E2.1134
G1 X51.893 Y69.963 E2.12463
G1 X52.43 Y69.445 E2.13585
G1 X53.02 Y68.988 E2.14709
G1 X53.655 Y68.597 E2.15831
G1 X54.328 Y68.276 E2.16953
G1 X55.032 Y68.029 E2.18076
G1 X55.758 Y67.859 E2.19198
G1 X56.636 Y67.75 E2.20529
G1 X173.016 Y67.75 E3.95663
G1 X173.761 Y67.79 E3.96786
G1 X174.497 Y67.909 E3.97907
G1 X175.216 Y68.107 E3.9903
G1 X175.91 Y68.38 E4.00152
G1 X176.571 Y68.727 E4.01275
G1 X177.191 Y69.141 E4.02397
G1 X177.763 Y69.62 E4.0352
G1 X178.281 Y70.157 E4.04643
G1 X178.738 Y70.747 E4.05766
G1 X179.129 Y71.382 E4.06888
G1 X179.45 Y72.055 E4.0801
G1 X179.697 Y72.759 E4.09133
G1 X179.867 Y73.485 E4.10255
G1 X179.976 Y74.363 E4.11586
G1 X179.976 Y83.366 E4.25134
G1 X179.936 Y84.111 E4.26257
G1 X179.817 Y84.847 E4.27379
G1 X179.619 Y85.566 E4.28501
G1 X179.346 Y86.26 E4.29624
G1 X178.999 Y86.921 E4.30747
G1 X178.585 Y87.541 E4.31869
G1 X178.106 Y88.113 E4.32992
G1 X177.569 Y88.631 E4.34114
G1 X176.979 Y89.088 E4.35238
G1 X176.344 Y89.479 E4.3636
G1 X175.671 Y89.8 E4.37482
G1 X174.967 Y90.047 E4.38605
G1 X174.241 Y90.217 E4.39727
G1 X173.363 Y90.326 E4.41058
G0 F1636.4 X173.016 Y89.846
G1 F600 X56.983 Y89.846 E6.1567
G1 X56.264 Y89.806 E6.16753
G1 X55.555 Y89.687 E6.17835
G1 X54.863 Y89.489 E6.18918
G1 X54.197 Y89.216 E6.20001
G1 X53.565 Y88.871 E6.21085
G1 X52.976 Y88.458 E6.22167
G1 X52.436 Y87.982 E6.23251
G1 X51.952 Y87.45 E6.24333
G1 X51.53 Y86.866 E6.25417
G1 X51.175 Y86.24 E6.265
G1 X50.892 Y85.578 E6.27584
G1 X50.685 Y84.889 E6.28666
G1 X50.555 Y84.181 E6.2975
G1 X50.503 Y83.366 E6.30979
G1 X50.503 Y74.71 E6.44004
G1 X50.543 Y73.991 E6.45088
G1 X50.662 Y73.282 E6.4617
G1 X50.86 Y72.59 E6.47253
G1 X51.133 Y71.924 E6.48336
G1 X51.478 Y71.292 E6.4942
G1 X51.891 Y70.703 E6.50502
G1 X52.367 Y70.163 E6.51586
G1 X52.899 Y69.679 E6.52668
G1 X53.483 Y69.257 E6.53752
G1 X54.109 Y68.902 E6.54835
G1 X54.771 Y68.619 E6.55919
G1 X55.46 Y68.412 E6.57001
G1 X56.168 Y68.282 E6.58084
G1 X56.983 Y68.23 E6.59313
G1 X173.016 Y68.23 E8.33925
G1 X173.735 Y68.27 E8.35009
G1 X174.444 Y68.389 E8.36091
G1 X175.136 Y68.587 E8.37174
G1 X175.802 Y68.86 E8.38257
G1 X176.434 Y69.205 E8.3934
G1 X177.023 Y69.618 E8.40423
G1 X177.563 Y70.094 E8.41506
G1 X178.047 Y70.626 E8.42588
G1 X178.469 Y71.21 E8.43673
G1 X178.824 Y71.836 E8.44756
G1 X179.107 Y72.498 E8.45839
G1 X179.314 Y73.187 E8.46922
G1 X179.444 Y73.895 E8.48005
G1 X179.496 Y74.71 E8.49234
G1 X179.496 Y83.366 E8.6226
G1 X179.456 Y84.085 E8.63343
G1 X179.337 Y84.794 E8.64425
G1 X179.139 Y85.486 E8.65508
G1 X178.866 Y86.152 E8.66592
G1 X178.521 Y86.784 E8.67675
G1 X178.108 Y87.373 E8.68758
G1 X177.632 Y87.913 E8.69841
G1 X177.1 Y88.397 E8.70923
G1 X176.516 Y88.819 E8.72008
G1 X175.89 Y89.174 E8.73091
G1 X175.228 Y89.457 E8.74174
G1 X174.539 Y89.664 E8.75257
G1 X173.831 Y89.794 E8.7634
G1 X173.016 Y89.846 E8.77569
G0 F1636.4 X173.324 Y89.366
G1 F600 X56.983 Y89.366 E10.52644
G1 X56.292 Y89.326 E10.53685
G1 X55.609 Y89.207 E10.54729
G1 X54.946 Y89.009 E10.5577
G1 X54.309 Y88.737 E10.56812
G1 X53.708 Y88.393 E10.57854
G1 X53.15 Y87.982 E10.58897
G1 X52.644 Y87.51 E10.59939
G1 X52.195 Y86.982 E10.60982
G1 X51.81 Y86.407 E10.62023
G1 X51.495 Y85.79 E10.63065
G1 X51.252 Y85.142 E10.64107
G1 X51.085 Y84.469 E10.6515
G1 X50.983 Y83.674 E10.66357
G1 X50.983 Y74.71 E10.79846
G1 X51.023 Y74.019 E10.80888
G1 X51.142 Y73.336 E10.81931
G1 X51.34 Y72.673 E10.82972
G1 X51.612 Y72.036 E10.84014
G1 X51.956 Y71.435 E10.85056
G1 X52.367 Y70.877 E10.86099
G1 X52.839 Y70.371 E10.87141
G1 X53.367 Y69.922 E10.88184
G1 X53.942 Y69.537 E10.89225
G1 X54.559 Y69.222 E10.90268
G1 X55.207 Y68.979 E10.91309
G1 X55.88 Y68.812 E10.92352
G1 X56.675 Y68.71 E10.93559
G1 X173.016 Y68.71 E12.68634
G1 X173.707 Y68.75 E12.69675
G1 X174.39 Y68.869 E12.70719
G1 X175.053 Y69.067 E12.7176
G1 X175.69 Y69.339 E12.72802
G1 X176.291 Y69.683 E12.73844
G1 X176.849 Y70.094 E12.74887
G1 X177.355 Y70.566 E12.75928
G1 X177.804 Y71.094 E12.76971
G1 X178.189 Y71.669 E12.78013
G1 X178.504 Y72.286 E12.79055
G1 X178.747 Y72.934 E12.80097
G1 X178.914 Y73.607 E12.8114
G1 X179.016 Y74.402 E12.82346
G1 X179.016 Y83.366 E12.95836
G1 X178.976 Y84.057 E12.96877
G1 X178.857 Y84.74 E12.97921
G1 X178.659 Y85.403 E12.98962
G1 X178.387 Y86.04 E13.00004
G1 X178.043 Y86.641 E13.01046
G1 X177.632 Y87.199 E13.02089
G1 X177.16 Y87.705 E13.03131
G1 X176.632 Y88.154 E13.04174
G1 X176.057 Y88.539 E13.05215
G1 X175.44 Y88.854 E13.06257
G1 X174.792 Y89.097 E13.07299
G1 X174.119 Y89.264 E13.08342
G1 X173.324 Y89.366 E13.09548
G0 F1636.4 X173.016 Y88.886
G1 F600 X56.983 Y88.886 E14.8416
G1 X56.32 Y88.846 E14.8516
G1 X55.667 Y88.727 E14.86158
G1 X55.032 Y88.53 E14.87159
G1 X54.426 Y88.258 E14.88159
G1 X53.857 Y87.916 E14.89158
G1 X53.333 Y87.507 E14.90158
G1 X52.862 Y87.039 E14.91157
G1 X52.451 Y86.517 E14.92157
G1 X52.105 Y85.95 E14.93156
G1 X51.83 Y85.345 E14.94156
G1 X51.63 Y84.712 E14.95155
G1 X51.507 Y84.059 E14.96155
G1 X51.463 Y83.366 E14.972
G1 X51.463 Y74.71 E15.10226
G1 X51.503 Y74.047 E15.11226
G1 X51.622 Y73.394 E15.12225
G1 X51.819 Y72.759 E15.13225
G1 X52.091 Y72.153 E15.14225
G1 X52.433 Y71.584 E15.15224
G1 X52.842 Y71.06 E15.16224
G1 X53.31 Y70.589 E15.17223
G1 X53.832 Y70.178 E15.18223
G1 X54.399 Y69.832 E15.19223
G1 X55.004 Y69.557 E15.20223
G1 X55.637 Y69.357 E15.21222
G1 X56.29 Y69.234 E15.22222
G1 X56.983 Y69.19 E15.23267
G1 X173.016 Y69.19 E16.97878
G1 X173.679 Y69.23 E16.98878
G1 X174.332 Y69.349 E16.99877
G1 X174.967 Y69.546 E17.00877
G1 X175.573 Y69.818 E17.01877
G1 X176.142 Y70.16 E17.02876
G1 X176.666 Y70.569 E17.03876
G1 X177.137 Y71.037 E17.04875
G1 X177.548 Y71.559 E17.05875
G1 X177.894 Y72.126 E17.06875
G1 X178.169 Y72.731 E17.07875
G1 X178.369 Y73.364 E17.08874
G1 X178.492 Y74.017 E17.09874
G1 X178.536 Y74.71 E17.10918
G1 X178.536 Y83.366 E17.23944
G1 X178.496 Y84.029 E17.24944
G1 X178.377 Y84.682 E17.25943
G1 X178.18 Y85.317 E17.26943
G1 X177.908 Y85.923 E17.27943
G1 X177.566 Y86.492 E17.28942
G1 X177.157 Y87.016 E17.29942
G1 X176.689 Y87.487 E17.30941
G1 X176.167 Y87.898 E17.31941
G1 X175.6 Y88.244 E17.32941
G1 X174.995 Y88.519 E17.33941
G1 X174.362 Y88.719 E17.3494
G1 X173.709 Y88.842 E17.3594
G1 X173.016 Y88.886 E17.36985
G0 F1636.4 X173.016 Y88.406
G1 F600 X56.983 Y88.406 E19.11596
G1 X56.35 Y88.366 E19.12551
G1 X55.726 Y88.247 E19.13507
G1 X55.123 Y88.05 E19.14461
G1 X54.549 Y87.779 E19.15417
G1 X54.014 Y87.438 E19.16371
G1 X53.525 Y87.033 E19.17327
G1 X53.092 Y86.569 E19.18282
G1 X52.72 Y86.055 E19.19237
G1 X52.416 Y85.498 E19.20192
G1 X52.184 Y84.907 E19.21147
G1 X52.029 Y84.292 E19.22101
G1 X51.943 Y83.366 E19.23501
G1 X51.943 Y74.71 E19.36527
G1 X51.983 Y74.077 E19.37481
G1 X52.102 Y73.453 E19.38437
G1 X52.299 Y72.85 E19.39392
G1 X52.57 Y72.276 E19.40347
G1 X52.911 Y71.741 E19.41302
G1 X53.316 Y71.252 E19.42257
G1 X53.78 Y70.819 E19.43212
G1 X54.294 Y70.447 E19.44167
G1 X54.851 Y70.143 E19.45122
G1 X55.442 Y69.911 E19.46078
G1 X56.057 Y69.756 E19.47032
G1 X56.983 Y69.67 E19.48431
G1 X173.016 Y69.67 E21.23043
G1 X173.649 Y69.71 E21.23997
G1 X174.273 Y69.829 E21.24953
G1 X174.876 Y70.026 E21.25908
G1 X175.45 Y70.297 E21.26863
G1 X175.985 Y70.638 E21.27818
G1 X176.474 Y71.043 E21.28773
G1 X176.907 Y71.507 E21.29729
G1 X177.279 Y72.021 E21.30683
G1 X177.583 Y72.578 E21.31638
G1 X177.815 Y73.169 E21.32594
G1 X177.97 Y73.784 E21.33548
G1 X178.056 Y74.71 E21.34948
G1 X178.056 Y83.366 E21.47974
G1 X178.016 Y83.999 E21.48928
G1 X177.897 Y84.623 E21.49884
G1 X177.7 Y85.226 E21.50839
G1 X177.429 Y85.8 E21.51794
G1 X177.088 Y86.335 E21.52748
G1 X176.683 Y86.824 E21.53704
G1 X176.219 Y87.257 E21.54659
G1 X175.705 Y87.629 E21.55614
G1 X175.148 Y87.933 E21.56569
G1 X174.557 Y88.165 E21.57524
G1 X173.942 Y88.32 E21.58479
G1 X173.016 Y88.406 E21.59878
G0 F1636.4 X173.016 Y87.926
G1 F600 X56.983 Y87.926 E23.3449
G1 X56.381 Y87.886 E23.35398
G1 X55.789 Y87.767 E23.36306
G1 X55.218 Y87.571 E23.37215
G1 X54.678 Y87.301 E23.38123
G1 X54.179 Y86.962 E23.39031
G1 X53.728 Y86.56 E23.3994
G1 X53.335 Y86.102 E23.40848
G1 X53.005 Y85.596 E23.41758
G1 X52.746 Y85.051 E23.42666
G1 X52.56 Y84.477 E23.43574
G1 X52.452 Y83.883 E23.44482
G1 X52.423 Y83.366 E23.45261
G1 X52.423 Y74.71 E23.58287
G1 X52.463 Y74.108 E23.59195
G1 X52.582 Y73.516 E23.60104
G1 X52.778 Y72.945 E23.61012
G1 X53.048 Y72.405 E23.61921
G1 X53.387 Y71.906 E23.62829
G1 X53.789 Y71.455 E23.63738
G1 X54.247 Y71.062 E23.64646
G1 X54.753 Y70.732 E23.65555
G1 X55.298 Y70.473 E23.66463
G1 X55.872 Y70.287 E23.67371
G1 X56.466 Y70.179 E23.6828
G1 X56.983 Y70.15 E23.69059
G1 X173.016 Y70.15 E25.43671
G1 X173.618 Y70.19 E25.44578
G1 X174.21 Y70.309 E25.45487
G1 X174.781 Y70.505 E25.46396
G1 X175.321 Y70.775 E25.47304
G1 X175.82 Y71.114 E25.48212
G1 X176.271 Y71.516 E25.49121
G1 X176.664 Y71.974 E25.50029
G1 X176.994 Y72.48 E25.50938
G1 X177.253 Y73.025 E25.51846
G1 X177.439 Y73.599 E25.52754
G1 X177.547 Y74.193 E25.53663
G1 X177.576 Y74.71 E25.54442
G1 X177.576 Y83.366 E25.67468
G1 X177.536 Y83.968 E25.68376
G1 X177.417 Y84.56 E25.69285
G1 X177.221 Y85.131 E25.70193
G1 X176.951 Y85.671 E25.71102
G1 X176.612 Y86.17 E25.7201
G1 X176.21 Y86.621 E25.72919
G1 X175.752 Y87.014 E25.73827
G1 X175.246 Y87.344 E25.74736
G1 X174.701 Y87.603 E25.75644
G1 X174.127 Y87.789 E25.76552
G1 X173.533 Y87.897 E25.77461
G1 X173.016 Y87.926 E25.7824
G0 F1636.4 X173.016 Y87.446
G1 F600 X56.983 Y87.446 E27.52851
G1 X56.413 Y87.406 E27.53711
G1 X55.855 Y87.287 E27.5457
G1 X55.319 Y87.091 E27.55429
G1 X54.815 Y86.822 E27.56288
G1 X54.354 Y86.486 E27.57147
G1 X53.944 Y86.088 E27.58007
G1 X53.594 Y85.637 E27.58866
G1 X53.31 Y85.142 E27.59725
G1 X53.098 Y84.612 E27.60584
G1 X52.962 Y84.057 E27.61443
G1 X52.903 Y83.366 E27.62487
G1 X52.903 Y74.71 E27.75513
G1 X52.943 Y74.14 E27.76373
G1 X53.062 Y73.582 E27.77232
G1 X53.258 Y73.046 E27.7809
G1 X53.527 Y72.542 E27.7895
G1 X53.863 Y72.081 E27.79808
G1 X54.261 Y71.671 E27.80668
G1 X54.712 Y71.321 E27.81527
G1 X55.207 Y71.037 E27.82386
G1 X55.737 Y70.825 E27.83245
G1 X56.292 Y70.689 E27.84105
G1 X56.983 Y70.63 E27.85149
G1 X173.016 Y70.63 E29.5976
G1 X173.586 Y70.67 E29.6062
G1 X174.144 Y70.789 E29.61479
G1 X174.68 Y70.985 E29.62338
G1 X175.184 Y71.254 E29.63197
G1 X175.645 Y71.59 E29.64056
G1 X176.055 Y71.988 E29.64916
G1 X176.405 Y72.439 E29.65775
G1 X176.689 Y72.934 E29.66634
G1 X176.901 Y73.464 E29.67493
G1 X177.037 Y74.019 E29.68352
G1 X177.096 Y74.71 E29.69396
G1 X177.096 Y83.366 E29.82422
G1 X177.056 Y83.936 E29.83282
G1 X176.937 Y84.494 E29.84141
G1 X176.741 Y85.03 E29.84999
G1 X176.472 Y85.534 E29.85859
G1 X176.136 Y85.995 E29.86718
G1 X175.738 Y86.405 E29.87577
G1 X175.287 Y86.755 E29.88436
G1 X174.792 Y87.039 E29.89295
G1 X174.262 Y87.251 E29.90154
G1 X173.707 Y87.387 E29.91014
G1 X173.016 Y87.446 E29.92058
G0 F1636.4 X173.233 Y86.966
G1 F600 X56.983 Y86.966 E31.66996
G1 X56.448 Y86.926 E31.67803
G1 X55.925 Y86.807 E31.6861
G1 X55.426 Y86.612 E31.69417
G1 X54.961 Y86.344 E31.70224
G1 X54.541 Y86.011 E31.71031
G1 X54.175 Y85.619 E31.71838
G1 X53.872 Y85.177 E31.72644
G1 X53.637 Y84.694 E31.73453
G1 X53.477 Y84.183 E31.74258
G1 X53.383 Y83.583 E31.75172
G1 X53.383 Y74.71 E31.88525
G1 X53.423 Y74.175 E31.89332
G1 X53.542 Y73.652 E31.90139
G1 X53.737 Y73.153 E31.90946
G1 X54.005 Y72.688 E31.91753
G1 X54.338 Y72.268 E31.9256
G1 X54.73 Y71.902 E31.93367
G1 X55.172 Y71.599 E31.94173
G1 X55.655 Y71.364 E31.94982
G1 X56.166 Y71.204 E31.95787
G1 X56.766 Y71.11 E31.96701
G1 X173.016 Y71.11 E33.71639
G1 X173.551 Y71.15 E33.72447
G1 X174.074 Y71.269 E33.73254
G1 X174.573 Y71.464 E33.7406
G1 X175.038 Y71.732 E33.74868
G1 X175.458 Y72.065 E33.75674
G1 X175.824 Y72.457 E33.76481
G1 X176.127 Y72.899 E33.77288
G1 X176.362 Y73.382 E33.78096
G1 X176.522 Y73.893 E33.78902
G1 X176.616 Y74.493 E33.79816
G1 X176.616 Y83.366 E33.93168
G1 X176.576 Y83.901 E33.93976
G1 X176.457 Y84.424 E33.94783
G1 X176.262 Y84.923 E33.95589
G1 X175.994 Y85.388 E33.96397
G1 X175.661 Y85.808 E33.97203
G1 X175.269 Y86.174 E33.9801
G1 X174.827 Y86.477 E33.98817
G1 X174.344 Y86.712 E33.99625
G1 X173.833 Y86.872 E34.00431
G1 X173.233 Y86.966 E34.01345
G0 F1636.4 X173.296 Y86.486
G1 F600 X56.648 Y86.486 E35.76882
G1 X56.001 Y86.327 E35.77885
G1 X55.541 Y86.133 E35.78636
G1 X54.743 Y85.538 E35.80134
G1 X54.425 Y85.153 E35.80885
G1 X54.173 Y84.722 E35.81637
G1 X53.993 Y84.256 E35.82388
G1 X53.863 Y83.646 E35.83327
G1 X53.863 Y74.375 E35.97278
G1 X54.022 Y73.728 E35.98281
G1 X54.216 Y73.268 E35.99032
G1 X54.811 Y72.47 E36.0053
G1 X55.196 Y72.152 E36.01281
G1 X55.627 Y71.9 E36.02033
G1 X56.093 Y71.72 E36.02785
G1 X56.703 Y71.59 E36.03723
G1 X173.351 Y71.59 E37.7926
G1 X173.998 Y71.749 E37.80263
G1 X174.458 Y71.943 E37.81014
G1 X175.256 Y72.538 E37.82512
G1 X175.574 Y72.923 E37.83263
G1 X175.826 Y73.354 E37.84015
G1 X176.006 Y73.82 E37.84767
G1 X176.136 Y74.43 E37.85705
G1 X176.136 Y83.701 E37.99657
G1 X175.977 Y84.348 E38.00659
G1 X175.783 Y84.808 E38.0141
G1 X175.188 Y85.606 E38.02908
G1 X174.803 Y85.924 E38.0366
G1 X174.372 Y86.176 E38.04411
G1 X173.906 Y86.356 E38.05163
G1 X173.296 Y86.486 E38.06101
G0 F1636.4 X173.016 Y86.006
G1 F600 X56.677 Y86.006 E39.81174
G1 X56.082 Y85.848 E39.821
G1 X55.289 Y85.391 E39.83477
G1 X54.964 Y85.067 E39.84168
G1 X54.505 Y84.276 E39.85544
G1 X54.343 Y83.678 E39.86476
G1 X54.343 Y74.404 E40.00432
G1 X54.501 Y73.809 E40.01359
G1 X54.958 Y73.016 E40.02736
G1 X55.282 Y72.691 E40.03427
G1 X56.073 Y72.232 E40.04803
G1 X56.516 Y72.112 E40.05494
G1 X56.983 Y72.07 E40.06199
G1 X173.322 Y72.07 E41.81271
G1 X173.917 Y72.228 E41.82198
G1 X174.71 Y72.685 E41.83575
G1 X175.035 Y73.009 E41.84266
G1 X175.494 Y73.8 E41.85642
G1 X175.656 Y74.398 E41.86574
G1 X175.656 Y83.672 E42.0053
G1 X175.498 Y84.267 E42.01456
G1 X175.041 Y85.06 E42.02834
G1 X174.717 Y85.385 E42.03524
G1 X173.926 Y85.844 E42.04901
G1 X173.483 Y85.964 E42.05591
G1 X173.016 Y86.006 E42.06297
G0 F1636.4 X173.016 Y85.526
G1 F600 X56.705 Y85.526 E43.81327
G1 X56.172 Y85.368 E43.82163
G1 X55.479 Y84.917 E43.83408
G1 X55.21 Y84.6 E43.84033
G1 X54.877 Y83.844 E43.85276
